;FLAVOR:Marlin
;TIME:13228
;Filament used: 0.259777m, 0m
;Layer height: 0.1
;MINX:-25.884
;MINY:-23.464
;MINZ:0.3
;MAXX:25.886
;MAXY:23.462
;MAXZ:3.5
;TARGET_MACHINE.NAME:Unknown
;Generated with Cura_SteamEngine 5.6.0
T0
M104 S270
M105
M109 S270
M82 ;absolute extrusion mode

G92 E0
G92 E0
G1 F1500 E-10
;LAYER_COUNT:33
;LAYER:0
M107
G0 F150 X-7.341 Y-20.188 Z0.3
;TYPE:SKIRT
G1 F1500 E0
G1 F150 X-6.342 Y-21.416 E0.02829
G1 X-4.6 Y-22.65 E0.06644
G1 X-3.957 Y-22.964 E0.07922
G1 X-1.894 Y-23.464 E0.11716
G1 X1.624 Y-23.422 E0.18003
G1 X3.257 Y-23.18 E0.20953
G1 X5.367 Y-22.204 E0.25107
G1 X5.888 Y-21.833 E0.2625
G1 X7.334 Y-20.317 E0.29994
G1 X25.155 Y10.548 E0.93684
G1 X25.786 Y12.469 E0.97297
G1 X25.886 Y14.709 E1.01304
G1 X25.33 Y16.755 E1.05093
G1 X23.719 Y19.829 E1.11294
G1 X22.628 Y21.331 E1.14612
G1 X20.663 Y22.623 E1.18814
G1 X19.645 Y23.105 E1.20827
G1 X17.845 Y23.462 E1.24106
G1 X-18.131 Y23.378 E1.88396
G1 X-19.723 Y23.1 E1.91284
G1 X-22.058 Y21.839 E1.96026
G1 X-23.714 Y20.002 E2.00446
G1 X-25.355 Y16.55 E2.07276
G1 X-25.745 Y15.309 E2.09601
G1 X-25.884 Y13.239 E2.13308
G1 X-25.352 Y10.881 E2.17628
G1 X-7.341 Y-20.188 E2.81803
G0 X-6.995 Y-19.987
G1 X-6.068 Y-21.119 E2.84417
G1 X-4.425 Y-22.29 E2.88023
G1 X-3.82 Y-22.585 E2.89226
G1 X-1.848 Y-23.063 E2.92852
G1 X1.565 Y-23.026 E2.98951
G1 X3.143 Y-22.792 E3.01802
G1 X5.165 Y-21.857 E3.05783
G1 X5.627 Y-21.528 E3.06796
G1 X7.012 Y-20.076 E3.10382
G1 X24.787 Y10.71 E3.73908
G1 X25.388 Y12.54 E3.7735
G1 X25.483 Y14.666 E3.81153
G1 X24.955 Y16.611 E3.84755
G1 X23.395 Y19.594 E3.9077
G1 X22.347 Y21.037 E3.93957
G1 X20.492 Y22.261 E3.97929
G1 X19.516 Y22.723 E3.99858
G1 X17.808 Y23.062 E4.0297
G1 X-18.062 Y22.984 E4.6707
G1 X-19.59 Y22.717 E4.69842
G1 X-21.807 Y21.52 E4.74344
G1 X-23.378 Y19.777 E4.78538
G1 X-24.973 Y16.43 E4.85163
G1 X-25.349 Y15.233 E4.87405
G1 X-25.481 Y13.27 E4.90921
G1 X-24.976 Y11.03 E4.95024
G1 X-6.995 Y-19.987 E5.59092
G0 X-6.649 Y-19.786
G1 X-5.793 Y-20.824 E5.61496
G1 X-4.193 Y-21.964 E5.65007
G1 X-3.685 Y-22.206 E5.66013
G1 X-1.802 Y-22.662 E5.69475
G1 X1.506 Y-22.63 E5.75386
G1 X3.029 Y-22.404 E5.78138
G1 X4.963 Y-21.51 E5.81945
G1 X5.363 Y-21.225 E5.82823
G1 X6.691 Y-19.832 E5.86262
G1 X24.419 Y10.872 E6.49619
G1 X24.99 Y12.611 E6.5289
G1 X25.08 Y14.623 E6.56489
G1 X24.581 Y16.463 E6.59896
G1 X23.071 Y19.359 E6.65733
G1 X22.065 Y20.744 E6.68792
G1 X20.321 Y21.899 E6.7253
G1 X19.387 Y22.341 E6.74376
G1 X17.771 Y22.662 E6.7732
G1 X-17.993 Y22.59 E7.41231
G1 X-19.457 Y22.334 E7.43887
G1 X-21.556 Y21.201 E7.48149
G1 X-23.042 Y19.552 E7.52116
G1 X-24.591 Y16.31 E7.58537
G1 X-24.953 Y15.157 E7.60696
G1 X-25.078 Y13.301 E7.6402
G1 X-24.6 Y11.179 E7.67907
G1 X-6.649 Y-19.786 E8.31868
G0 X-6.34 Y-19.531
G1 X-5.516 Y-20.53 E8.34182
G1 X-3.961 Y-21.638 E8.37594
G1 X-3.591 Y-21.817 E8.38329
G1 X-1.755 Y-22.262 E8.41705
G1 X1.447 Y-22.234 E8.47427
G1 X2.915 Y-22.016 E8.50079
G1 X4.795 Y-21.147 E8.5378
G1 X5.074 Y-20.949 E8.54391
G1 X6.369 Y-19.591 E8.57745
G1 X24.051 Y11.034 E9.20938
G1 X24.592 Y12.682 E9.24038
G1 X24.677 Y14.58 E9.27433
G1 X24.206 Y16.317 E9.30649
G1 X22.747 Y19.124 E9.36303
G1 X21.784 Y20.45 E9.39231
G1 X20.15 Y21.537 E9.42738
G1 X19.258 Y21.959 E9.44501
G1 X17.734 Y22.262 E9.47278
G1 X-17.924 Y22.196 E10.10999
G1 X-19.324 Y21.951 E10.13539
G1 X-21.305 Y20.882 E10.17562
G1 X-22.705 Y19.328 E10.21299
G1 X-24.209 Y16.19 E10.27518
G1 X-24.557 Y15.081 E10.29595
G1 X-24.675 Y13.332 E10.32727
G1 X-24.224 Y11.328 E10.36398
G1 X-6.34 Y-19.531 E11.00135
G0 X-6.031 Y-19.276
G1 X-5.239 Y-20.236 E11.02359
G1 X-3.729 Y-21.312 E11.05672
G1 X-3.454 Y-21.438 E11.06213
G1 X-1.708 Y-21.862 E11.09423
G1 X1.388 Y-21.838 E11.14956
G1 X2.802 Y-21.628 E11.17511
G1 X4.573 Y-20.814 E11.20994
G1 X4.785 Y-20.673 E11.21449
G1 X6.047 Y-19.35 E11.24716
G1 X23.683 Y11.196 E11.87747
G1 X24.194 Y12.753 E11.90675
G1 X24.274 Y14.537 E11.93866
G1 X23.831 Y16.172 E11.96893
G1 X22.423 Y18.889 E12.02362
G1 X21.502 Y20.157 E12.05162
G1 X19.979 Y21.175 E12.08436
G1 X19.129 Y21.577 E12.10116
G1 X17.697 Y21.862 E12.12725
G1 X-17.855 Y21.802 E12.76257
G1 X-19.191 Y21.568 E12.78681
G1 X-21.054 Y20.563 E12.82463
G1 X-22.369 Y19.104 E12.85973
G1 X-23.827 Y16.07 E12.91989
G1 X-24.161 Y15.005 E12.93983
G1 X-24.272 Y13.363 E12.96924
G1 X-23.848 Y11.477 E13.00379
G1 X-6.031 Y-19.276 E13.63891
G0 X-5.685 Y-19.075
G1 X-4.965 Y-19.94 E13.65902
G1 X-3.497 Y-20.986 E13.69124
G1 X-3.36 Y-21.049 E13.69393
G1 X-1.661 Y-21.462 E13.72518
G1 X1.385 Y-21.438 E13.77961
G1 X2.687 Y-21.241 E13.80314
G1 X4.406 Y-20.451 E13.83695
G1 X4.528 Y-20.364 E13.83963
G1 X5.725 Y-19.109 E13.87062
G1 X23.315 Y11.358 E14.49929
G1 X23.796 Y12.824 E14.52686
G1 X23.871 Y14.494 E14.55673
G1 X23.456 Y16.027 E14.58511
G1 X22.099 Y18.654 E14.63795
G1 X21.22 Y19.864 E14.66468
G1 X19.757 Y20.842 E14.69613
G1 X19.003 Y21.194 E14.711
G1 X17.659 Y21.462 E14.73549
G1 X-17.786 Y21.408 E15.36889
G1 X-19.058 Y21.185 E15.39197
G1 X-20.803 Y20.244 E15.4274
G1 X-22.034 Y18.878 E15.46026
G1 X-23.445 Y15.95 E15.51834
G1 X-23.765 Y14.929 E15.53746
G1 X-23.869 Y13.394 E15.56495
G1 X-23.472 Y11.626 E15.59733
G1 X-5.685 Y-19.075 E16.23139
G0 X-5.378 Y-18.819
G1 X-4.692 Y-19.643 E16.25055
G1 X-3.265 Y-20.66 E16.28186
G1 X-1.613 Y-21.062 E16.31224
G1 X1.325 Y-21.042 E16.36475
G1 X2.575 Y-20.853 E16.38734
G1 X4.239 Y-20.088 E16.42006
G1 X5.403 Y-18.868 E16.4502
G1 X22.947 Y11.52 E17.07723
G1 X23.398 Y12.895 E17.10309
G1 X23.468 Y14.452 E17.13095
G1 X23.082 Y15.879 E17.15736
G1 X21.775 Y18.419 E17.20841
G1 X20.938 Y19.571 E17.23386
G1 X19.535 Y20.509 E17.26401
G1 X18.878 Y20.811 E17.27694
G1 X17.621 Y21.062 E17.29984
G1 X-17.717 Y21.014 E17.93133
G1 X-18.925 Y20.802 E17.95325
G1 X-20.552 Y19.925 E17.98628
G1 X-21.699 Y18.652 E18.0169
G1 X-23.063 Y15.83 E18.07291
G1 X-23.369 Y14.853 E18.09121
G1 X-23.466 Y13.425 E18.11678
G1 X-23.095 Y11.773 E18.14704
G1 X-5.378 Y-18.819 E18.77878
G0 X-5.071 Y-18.563
G1 X-4.419 Y-19.346 E18.79699
G1 X-3.096 Y-20.289 E18.82602
G1 X-1.565 Y-20.662 E18.85418
G1 X1.265 Y-20.646 E18.90475
G1 X2.463 Y-20.465 E18.92641
G1 X4.003 Y-19.757 E18.9567
G1 X5.081 Y-18.627 E18.9846
G1 X22.579 Y11.682 E19.61001
G1 X23 Y12.966 E19.63415
G1 X23.065 Y14.41 E19.65998
G1 X22.707 Y15.733 E19.68448
G1 X21.451 Y18.184 E19.73369
G1 X20.656 Y19.278 E19.75786
G1 X19.313 Y20.176 E19.78673
G1 X18.752 Y20.429 E19.79773
G1 X17.583 Y20.662 E19.81903
G1 X-17.648 Y20.62 E20.44861
G1 X-18.792 Y20.419 E20.46936
G1 X-20.301 Y19.606 E20.49999
G1 X-21.363 Y18.427 E20.52835
G1 X-22.681 Y15.711 E20.5823
G1 X-22.973 Y14.778 E20.59977
G1 X-23.063 Y13.455 E20.62346
G1 X-22.719 Y11.92 E20.65158
G1 X-5.071 Y-18.563 E21.28101
G0 X-4.764 Y-18.307
G1 X-4.146 Y-19.049 E21.29827
G1 X-2.927 Y-19.918 E21.32502
G1 X-1.516 Y-20.262 E21.35097
G1 X1.205 Y-20.25 E21.3996
G1 X2.351 Y-20.077 E21.42031
G1 X3.765 Y-19.427 E21.44812
G1 X4.76 Y-18.383 E21.47389
G1 X22.211 Y11.844 E22.09761
G1 X22.602 Y13.037 E22.12004
G1 X22.662 Y14.368 E22.14385
G1 X22.332 Y15.588 E22.16644
G1 X21.127 Y17.949 E22.21381
G1 X20.375 Y18.984 E22.23667
G1 X19.148 Y19.811 E22.26311
G1 X18.625 Y20.047 E22.27336
G1 X17.545 Y20.262 E22.29304
G1 X-17.579 Y20.226 E22.92071
G1 X-18.659 Y20.036 E22.9403
G1 X-20.05 Y19.287 E22.96854
G1 X-21.027 Y18.202 E22.99463
G1 X-22.299 Y15.592 E23.04651
G1 X-22.577 Y14.703 E23.06316
G1 X-22.66 Y13.485 E23.08497
G1 X-22.342 Y12.067 E23.11094
G1 X-4.764 Y-18.307 E23.73807
G0 X-4.457 Y-18.051
G1 X-3.873 Y-18.752 E23.75437
G1 X-2.758 Y-19.547 E23.77884
G1 X-1.467 Y-19.862 E23.80259
G1 X1.145 Y-19.854 E23.84927
G1 X2.239 Y-19.689 E23.86904
G1 X3.528 Y-19.096 E23.89439
G1 X4.438 Y-18.142 E23.91795
G1 X21.843 Y12.006 E24.54003
G1 X22.204 Y13.108 E24.56076
G1 X22.259 Y14.326 E24.58254
G1 X21.958 Y15.441 E24.60318
G1 X20.803 Y17.714 E24.64874
G1 X20.093 Y18.692 E24.67034
G1 X18.983 Y19.446 E24.69432
G1 X18.498 Y19.665 E24.70383
G1 X17.507 Y19.862 E24.72189
G1 X-17.51 Y19.832 E25.34764
G1 X-18.526 Y19.653 E25.36608
G1 X-19.799 Y18.968 E25.39191
G1 X-20.693 Y17.976 E25.41577
G1 X-21.917 Y15.473 E25.46556
G1 X-22.181 Y14.628 E25.48138
G1 X-22.257 Y13.515 E25.50132
G1 X-21.965 Y12.214 E25.52515
G1 X-4.457 Y-18.051 E26.14996
G0 X-4.15 Y-17.795
G1 X-3.6 Y-18.455 E26.16531
G1 X-2.589 Y-19.176 E26.1875
G1 X-1.418 Y-19.462 E26.20904
G1 X1.085 Y-19.458 E26.25377
G1 X2.127 Y-19.301 E26.2726
G1 X3.29 Y-18.766 E26.29548
G1 X4.117 Y-17.898 E26.3169
G1 X21.476 Y12.169 E26.93732
G1 X21.806 Y13.178 E26.95629
G1 X21.856 Y14.284 E26.97607
G1 X21.583 Y15.294 E26.99477
G1 X20.446 Y17.533 E27.03965
G1 X19.81 Y18.401 E27.05887
G1 X18.818 Y19.081 E27.08037
G1 X18.371 Y19.283 E27.08913
G1 X17.469 Y19.462 E27.10557
G1 X-17.51 Y19.432 E27.73064
G1 X-18.392 Y19.271 E27.74666
G1 X-19.548 Y18.649 E27.77012
G1 X-20.359 Y17.749 E27.79177
G1 X-21.535 Y15.354 E27.83945
G1 X-21.785 Y14.553 E27.85445
G1 X-21.854 Y13.545 E27.8725
G1 X-21.588 Y12.361 E27.89419
G1 X-4.15 Y-17.795 E28.51669
G0 X-3.843 Y-17.539
G1 X-3.327 Y-18.158 E28.53109
G1 X-2.42 Y-18.805 E28.551
G1 X-1.368 Y-19.062 E28.57035
G1 X1.025 Y-19.062 E28.61311
G1 X2.015 Y-18.913 E28.631
G1 X3.053 Y-18.435 E28.65142
G1 X3.795 Y-17.657 E28.67064
G1 X21.109 Y12.332 E29.28944
G1 X21.408 Y13.248 E29.30666
G1 X21.453 Y14.242 E29.32444
G1 X21.208 Y15.15 E29.34125
G1 X20.123 Y17.297 E29.38424
G1 X19.527 Y18.11 E29.40225
G1 X18.643 Y18.721 E29.42145
G1 X18.293 Y18.891 E29.42841
G1 X17.431 Y19.062 E29.44411
G1 X-17.438 Y19.038 E30.06722
G1 X-18.26 Y18.888 E30.08215
G1 X-19.297 Y18.33 E30.1032
G1 X-20.024 Y17.523 E30.12261
G1 X-21.153 Y15.235 E30.1682
G1 X-21.389 Y14.478 E30.18237
G1 X-21.451 Y13.575 E30.19855
G1 X-21.212 Y12.508 E30.21809
G1 X-3.843 Y-17.539 E30.83828
G0 X-3.497 Y-17.339
G1 X-3.055 Y-17.861 E30.85051
G1 X-2.251 Y-18.434 E30.86815
G1 X-1.318 Y-18.662 E30.88531
G1 X1.025 Y-18.662 E30.92718
G1 X1.9 Y-18.526 E30.943
G1 X2.815 Y-18.105 E30.961
G1 X3.474 Y-17.413 E30.97808
G1 X20.742 Y12.495 E31.59522
G1 X21.01 Y13.318 E31.61069
G1 X21.05 Y14.2 E31.62647
G1 X20.833 Y15.006 E31.64138
G1 X19.8 Y17.061 E31.68249
G1 X19.244 Y17.82 E31.6993
G1 X18.416 Y18.392 E31.71728
G1 X18.164 Y18.509 E31.72225
G1 X17.393 Y18.662 E31.73629
G1 X-17.366 Y18.644 E32.35744
G1 X-18.128 Y18.505 E32.37128
G1 X-19.046 Y18.011 E32.38991
G1 X-19.689 Y17.297 E32.40708
G1 X-20.794 Y15.058 E32.4517
G1 X-20.993 Y14.403 E32.46393
G1 X-21.048 Y13.605 E32.47823
G1 X-20.835 Y12.655 E32.49562
G1 X-3.497 Y-17.339 E33.11472
G0 X-3.192 Y-17.08
G1 X-2.782 Y-17.564 E33.12606
G1 X-2.082 Y-18.063 E33.14142
G1 X-1.268 Y-18.262 E33.15639
G1 X1.025 Y-18.262 E33.19737
G1 X1.785 Y-18.139 E33.21113
G1 X2.578 Y-17.774 E33.22673
G1 X3.152 Y-17.172 E33.24159
G1 X20.375 Y12.658 E33.85713
G1 X20.612 Y13.388 E33.87084
G1 X20.647 Y14.158 E33.88462
G1 X20.458 Y14.861 E33.89762
G1 X19.477 Y16.825 E33.93686
G1 X18.961 Y17.53 E33.95247
G1 X18.189 Y18.063 E33.96923
G1 X18.04 Y18.126 E33.97212
G1 X17.355 Y18.262 E33.9846
G1 X-17.294 Y18.25 E34.60378
G1 X-17.996 Y18.122 E34.61653
G1 X-18.795 Y17.692 E34.63275
G1 X-19.355 Y17.07 E34.6477
G1 X-20.411 Y14.942 E34.69016
G1 X-20.597 Y14.329 E34.7016
G1 X-20.645 Y13.635 E34.71404
G1 X-20.458 Y12.802 E34.72929
G1 X-3.192 Y-17.08 E35.34601
G0 X-2.887 Y-16.821
G1 X-2.509 Y-17.267 E35.35646
G1 X-1.913 Y-17.692 E35.36954
G1 X-1.218 Y-17.862 E35.38233
G1 X1.025 Y-17.862 E35.42241
G1 X1.668 Y-17.753 E35.43407
G1 X2.341 Y-17.443 E35.44731
G1 X2.83 Y-16.931 E35.45996
G1 X20.006 Y12.818 E36.07382
G1 X20.214 Y13.46 E36.08588
G1 X20.244 Y14.116 E36.09761
G1 X20.083 Y14.716 E36.10871
G1 X19.119 Y16.646 E36.14727
G1 X18.679 Y17.239 E36.16046
G1 X17.962 Y17.734 E36.17603
G1 X17.317 Y17.862 E36.18778
G1 X-17.222 Y17.856 E36.805
G1 X-17.864 Y17.739 E36.81666
G1 X-18.544 Y17.373 E36.83046
G1 X-19.021 Y16.844 E36.84319
G1 X-20.028 Y14.826 E36.88349
G1 X-20.201 Y14.255 E36.89415
G1 X-20.242 Y13.665 E36.90472
G1 X-20.081 Y12.949 E36.91783
G1 X-2.887 Y-16.821 E37.53218
G0 X-2.582 Y-16.562
G1 X-2.236 Y-16.97 E37.54174
G1 X-1.744 Y-17.321 E37.55254
G1 X-1.168 Y-17.462 E37.56314
G1 X1.025 Y-17.462 E37.60233
G1 X1.552 Y-17.367 E37.61189
G1 X2.103 Y-17.113 E37.62274
G1 X2.509 Y-16.687 E37.63325
G1 X19.637 Y12.978 E38.24538
G1 X19.816 Y13.532 E38.25579
G1 X19.841 Y14.074 E38.26548
G1 X19.725 Y14.537 E38.27401
G1 X18.761 Y16.467 E38.31257
G1 X18.397 Y16.948 E38.32335
G1 X17.803 Y17.358 E38.33624
G1 X17.317 Y17.462 E38.34512
G1 X-17.15 Y17.462 E38.96105
G1 X-17.732 Y17.356 E38.97162
G1 X-18.293 Y17.054 E38.98301
G1 X-18.687 Y16.617 E38.99352
G1 X-19.67 Y14.647 E39.03287
G1 X-19.817 Y14.143 E39.04225
G1 X-19.852 Y13.753 E39.04924
G1 X-19.704 Y13.096 E39.06128
G1 X-2.582 Y-16.562 E39.67325
G0 X-2.236 Y-16.362
G1 X-1.935 Y-16.707 E39.68143
G1 X-1.575 Y-16.951 E39.6892
G1 X-1.168 Y-17.062 E39.69674
G1 X1.025 Y-17.062 E39.73593
G1 X1.475 Y-16.974 E39.74412
G1 X1.867 Y-16.782 E39.75192
G1 X2.163 Y-16.487 E39.75939
G1 X19.27 Y13.142 E40.37078
G1 X19.417 Y13.564 E40.37876
G1 X19.451 Y13.986 E40.38633
G1 X19.367 Y14.358 E40.39314
G1 X18.403 Y16.288 E40.4317
G1 X18.117 Y16.656 E40.44003
G1 X17.642 Y16.984 E40.45034
G1 X17.317 Y17.062 E40.45631
G1 X-17.15 Y17.062 E41.07224
G1 X-17.603 Y16.973 E41.08049
G1 X-18.004 Y16.778 E41.08846
G1 X-18.329 Y16.438 E41.09686
G1 X-19.312 Y14.468 E41.13621
G1 X-19.432 Y14.036 E41.14422
G1 X-19.448 Y13.779 E41.14882
G1 X-19.328 Y13.243 E41.15864
G1 X-2.236 Y-16.362 E41.76952
G0 X-1.89 Y-16.162
G1 X-1.639 Y-16.438 E41.77618
G1 X-1.362 Y-16.612 E41.78203
G1 X-1.168 Y-16.662 E41.78561
G1 X1.025 Y-16.662 E41.8248
G1 X1.39 Y-16.583 E41.83147
G1 X1.678 Y-16.429 E41.83731
G1 X1.817 Y-16.287 E41.84086
G1 X18.924 Y13.342 E42.45225
G1 X19.037 Y13.688 E42.45875
G1 X19.051 Y14.004 E42.4644
G1 X19.009 Y14.179 E42.46762
G1 X18.045 Y16.109 E42.50617
G1 X17.806 Y16.405 E42.51297
G1 X17.531 Y16.6 E42.51899
G1 X17.317 Y16.662 E42.52297
G1 X-17.15 Y16.662 E43.1389
G1 X-17.518 Y16.582 E43.14563
G1 X-17.817 Y16.424 E43.15167
G1 X-17.971 Y16.259 E43.15571
G1 X-18.954 Y14.289 E43.19505
G1 X-19.045 Y13.936 E43.20156
G1 X-19.048 Y13.772 E43.2045
G1 X-18.951 Y13.389 E43.21156
G1 X-1.89 Y-16.162 E43.82132
G0 X-1.198 Y-15.762
G1 X-1.086 Y-15.862 E43.82401
G1 X1.025 Y-15.862 E43.86173
G1 X1.167 Y-15.815 E43.8644
G1 X18.232 Y13.742 E44.4743
G1 X18.262 Y13.883 E44.47688
G1 X17.329 Y15.751 E44.51419
G1 X17.219 Y15.862 E44.51698
G1 X-17.15 Y15.862 E45.13116
G1 X-17.298 Y15.814 E45.13394
G1 X-18.238 Y13.931 E45.17155
G1 X-18.259 Y13.789 E45.17411
G1 X-1.198 Y-15.762 E45.78388
G0 X-1.544 Y-15.962
G1 X-1.352 Y-16.16 E45.78881
G1 X-1.168 Y-16.262 E45.79257
G1 X1.025 Y-16.262 E45.83176
G1 X1.293 Y-16.195 E45.8367
G1 X1.471 Y-16.087 E45.84042
G1 X18.578 Y13.542 E46.4518
G1 X18.653 Y13.8 E46.4566
G1 X18.651 Y14 E46.46018
G1 X17.687 Y15.93 E46.49873
G1 X17.503 Y16.144 E46.50377
G1 X17.317 Y16.262 E46.50771
G1 X-17.15 Y16.262 E47.12364
G1 X-17.421 Y16.194 E47.12863
G1 X-17.613 Y16.08 E47.13262
G1 X-18.596 Y14.11 E47.17196
G1 X-18.655 Y13.848 E47.17676
G1 X-18.605 Y13.589 E47.18148
G1 X-1.544 Y-15.962 E47.79124
G1 F1500 E37.79124
;MESH:Tri_v2_small.stl
G0 F150 X0.783 Y-15.245
G0 X17.052 Y13.872
G0 X17.377 Y13.865
;TYPE:WALL-INNER
G1 F1500 E47.79124
G1 F150 X0.677 Y-15.061 E48.38811
G1 X-.677 Y-15.061 E48.41231
G1 X-17.377 Y13.865 E49.00918
G1 X-16.779 Y15.062 E49.03309
G1 X16.778 Y15.061 E49.63276
G1 X17.377 Y13.865 E49.65666
G0 X17.831 Y13.851
;TYPE:WALL-OUTER
G1 X0.908 Y-15.461 E50.2615
G1 X-.908 Y-15.461 E50.29395
G1 X-17.831 Y13.851 E50.89879
G1 X-17.026 Y15.462 E50.93097
G1 X17.026 Y15.461 E51.53948
G1 X17.831 Y13.851 E51.57165
G0 X17.731 Y13.678
G0 X16.945 Y13.879
;TYPE:SKIN
G1 X16.544 Y14.68 E51.58765
G1 X-16.544 Y14.682 E52.17894
G1 X-16.945 Y13.879 E52.19498
G1 X-.457 Y-14.681 E52.78429
G1 X0.457 Y-14.681 E52.80062
G1 X16.945 Y13.879 E53.38993
G0 X0.227 Y-14.48
G1 X0.495 Y-14.212 E53.39671
G0 X-.337 Y-14.48
G1 X1.268 Y-12.873 E53.43729
G1 X1.338 Y-12.803
G0 X2.04 Y-11.535
G1 X-.547 Y-14.123 E53.50268
G0 X-.754 Y-13.765
G1 X2.813 Y-10.197 E53.59284
G1 X2.883 Y-10.127
G0 X3.586 Y-8.858
G1 X-.96 Y-13.406 E53.70775
G0 X-1.168 Y-13.047
G1 X4.359 Y-7.52 E53.84743
G1 X4.429 Y-7.45
G0 X5.131 Y-6.182
G1 X-1.375 Y-12.689 E54.01187
G0 X-1.582 Y-12.33
G1 X5.904 Y-4.843 E54.20106
G1 X5.974 Y-4.773
G0 X6.677 Y-3.505
G1 X-1.789 Y-11.972 E54.41503
G0 X-1.996 Y-11.613
G1 X7.449 Y-2.167 E54.65374
G1 X7.519 Y-2.097
G0 X8.222 Y-.828
G1 X-2.203 Y-11.254 E54.91721
G0 X-2.41 Y-10.895
G1 X8.995 Y0.509 E55.20543
G1 X9.065 Y0.579
G0 X9.767 Y1.848
G1 X-2.617 Y-10.537 E55.51841
G0 X-2.824 Y-10.178
G1 X10.54 Y3.186 E55.85614
G1 X10.61 Y3.256
G0 X11.313 Y4.524
G1 X-3.032 Y-9.82 E56.21866
G0 X-3.238 Y-9.461
G1 X12.085 Y5.863 E56.60591
G1 X12.155 Y5.933
G0 X12.858 Y7.201
G1 X-3.445 Y-9.102 E57.01792
G0 X-3.652 Y-8.744
G1 X13.63 Y8.539 E57.45469
G1 X13.7 Y8.609
G0 X14.403 Y9.878
G1 X-3.86 Y-8.385 E57.91623
G0 X-4.067 Y-8.027
G1 X15.176 Y11.216 E58.40254
G1 X15.246 Y11.286
G0 X15.948 Y12.554
G1 X-4.273 Y-7.667 E58.91357
G0 X-4.48 Y-7.309
G1 X16.716 Y13.888 E59.44925
G0 X16.527 Y14.265
G1 X-4.688 Y-6.95 E59.98539
G0 X-4.895 Y-6.592
G1 X16.177 Y14.48 E60.51792
G0 X15.611 Y14.48
G1 X-5.102 Y-6.233 E61.04138
G0 X-5.309 Y-5.875
G1 X15.045 Y14.48 E61.55578
G0 X14.48 Y14.48
G1 X-5.516 Y-5.516 E62.06112
G0 X-5.723 Y-5.157
G1 X13.914 Y14.48 E62.55739
G0 X13.348 Y14.48
G1 X-5.93 Y-4.799 E63.0446
G0 X-6.137 Y-4.44
G1 X12.783 Y14.48 E63.52274
G0 X12.217 Y14.48
G1 X-6.344 Y-4.082 E63.99183
G0 X-6.551 Y-3.722
G1 X11.651 Y14.48 E64.45183
G0 X11.086 Y14.48
G1 X-6.758 Y-3.364 E64.90279
G0 X-6.965 Y-3.005
G1 X10.52 Y14.48 E65.34467
G0 X9.954 Y14.48
G1 X-7.172 Y-2.647 E65.77749
G0 X-7.38 Y-2.288
G1 X9.388 Y14.48 E66.20125
G0 X8.823 Y14.48
G1 X-7.586 Y-1.929 E66.61594
G0 X-7.793 Y-1.571
G1 X8.257 Y14.48 E67.02157
G0 X7.691 Y14.48
G1 X-8 Y-1.212 E67.41813
G0 X-8.208 Y-.854
G1 X7.126 Y14.48 E67.80565
G0 X6.56 Y14.48
G1 X-8.415 Y-.495 E68.1841
G0 X-8.622 Y-.137
G1 X5.994 Y14.48 E68.55348
G0 X5.429 Y14.48
G1 X-8.828 Y0.222 E68.9138
G0 X-9.036 Y0.58
G1 X4.864 Y14.48 E69.26508
G0 X4.298 Y14.48
G1 X-9.243 Y0.939 E69.60729
G0 X-9.45 Y1.297
G1 X3.732 Y14.48 E69.94044
G0 X3.167 Y14.48
G1 X-9.657 Y1.656 E70.26453
G0 X-9.864 Y2.015
G1 X2.601 Y14.48 E70.57954
G0 X2.035 Y14.48
G1 X-10.071 Y2.373 E70.8855
G0 X-10.278 Y2.732
G1 X1.47 Y14.48 E71.1824
G0 X0.904 Y14.48
G1 X-10.485 Y3.09 E71.47023
G0 X-10.692 Y3.449
G1 X0.338 Y14.48 E71.74899
G0 X-.226 Y14.48
G1 X-10.899 Y3.808 E72.01871
G0 X-11.106 Y4.166
G1 X-.792 Y14.48 E72.27937
G0 X-1.358 Y14.48
G1 X-11.313 Y4.525 E72.53095
G0 X-11.52 Y4.883
G1 X-1.924 Y14.48 E72.77347
G0 X-2.489 Y14.48
G1 X-11.728 Y5.242 E73.00695
G0 X-11.935 Y5.6
G1 X-3.055 Y14.48 E73.23136
G0 X-3.621 Y14.48
G1 X-12.141 Y5.96 E73.44668
G0 X-12.348 Y6.318
G1 X-4.186 Y14.48 E73.65295
G0 X-4.752 Y14.48
G1 X-12.556 Y6.677 E73.85016
G0 X-12.763 Y7.035
G1 X-5.318 Y14.48 E74.03831
G0 X-5.883 Y14.481
G1 X-12.97 Y7.394 E74.21742
G0 X-13.176 Y7.753
G1 X-6.448 Y14.481 E74.38745
G0 X-7.014 Y14.481
G1 X-13.384 Y8.111 E74.54843
G0 X-13.591 Y8.47
G1 X-7.58 Y14.481 E74.70034
G0 X-8.145 Y14.481
G1 X-13.798 Y8.828 E74.8432
G0 X-14.005 Y9.187
G1 X-8.711 Y14.481 E74.97699
G0 X-9.277 Y14.481
G1 X-14.212 Y9.546 E75.10171
G0 X-14.419 Y9.905
G1 X-9.842 Y14.481 E75.21737
G0 X-10.408 Y14.481
G1 X-14.626 Y10.263 E75.32396
G0 X-14.833 Y10.622
G1 X-10.974 Y14.481 E75.42149
G0 X-11.539 Y14.481
G1 X-15.04 Y10.98 E75.50997
G0 X-15.248 Y11.339
G1 X-12.105 Y14.481 E75.58938
G0 X-12.671 Y14.481
G1 X-15.454 Y11.698 E75.65972
G0 X-15.661 Y12.056
G1 X-13.237 Y14.481 E75.72099
G0 X-13.802 Y14.481
G1 X-15.868 Y12.415 E75.7732
G0 X-16.076 Y12.773
G1 X-14.368 Y14.481 E75.81636
G0 X-14.934 Y14.481
G1 X-16.283 Y13.132 E75.85046
G0 X-16.489 Y13.491
G1 X-15.499 Y14.481 E75.87548
G0 X-16.065 Y14.481
G1 X-16.696 Y13.85 E75.89142
G1 X-16.766 Y13.78
G0 X-16.67 Y13.836
;MESH:NONMESH
G0 F120 X-16.67 Y13.836 Z0.4
G0 F150 X17.052 Y13.872
G0 X17.377 Y13.865
;TIME_ELAPSED:1777.577171
;LAYER:1
;TYPE:WALL-INNER
;MESH:Tri_v2_small.stl
G1 F225 X0.677 Y-15.061 E76.09038
G1 X-.677 Y-15.061 E76.09844
G1 X-17.377 Y13.865 E76.2974
G1 X-16.779 Y15.062 E76.30537
G1 X16.778 Y15.061 E76.50526
G1 X17.377 Y13.865 E76.51323
G0 X17.831 Y13.851
;TYPE:WALL-OUTER
G1 F150 X0.908 Y-15.461 E76.71484
G1 X-.908 Y-15.461 E76.72566
G1 X-17.831 Y13.851 E76.92727
G1 X-17.026 Y15.462 E76.938
G1 X17.026 Y15.461 E77.14083
G1 X17.831 Y13.851 E77.15156
G0 F225 X17.731 Y13.678
G0 X16.945 Y13.879
;TYPE:SKIN
G1 F150 X16.544 Y14.68 E77.15689
G1 X-16.544 Y14.682 E77.35399
G1 X-16.945 Y13.879 E77.35933
G1 X-.457 Y-14.681 E77.55577
G1 X0.457 Y-14.681 E77.56121
G1 X16.945 Y13.879 E77.75765
G0 F225 X16.066 Y14.48
G1 F150 X16.696 Y13.85 E77.76296
G0 F225 X16.489 Y13.492
G1 F150 X15.5 Y14.48 E77.77129
G0 F225 X14.934 Y14.48
G1 F150 X16.282 Y13.133 E77.78264
G0 F225 X16.075 Y12.774
G1 F150 X14.369 Y14.48 E77.79701
G0 F225 X13.803 Y14.48
G1 F150 X15.868 Y12.416 E77.8144
G0 F225 X15.661 Y12.057
G1 F150 X13.237 Y14.48 E77.83482
G0 F225 X12.672 Y14.48
G1 F150 X15.453 Y11.699 E77.85824
G0 F225 X15.247 Y11.339
G1 F150 X12.106 Y14.48 E77.8847
G0 F225 X11.54 Y14.48
G1 F150 X15.04 Y10.981 E77.91418
G0 F225 X14.832 Y10.622
G1 F150 X10.975 Y14.48 E77.94668
G0 F225 X10.409 Y14.48
G1 F150 X14.625 Y10.264 E77.98219
G0 F225 X14.418 Y9.905
G1 F150 X9.843 Y14.48 E78.02073
G0 F225 X9.277 Y14.48
G1 F150 X14.211 Y9.547 E78.06229
G0 F225 X14.004 Y9.188
G1 F150 X8.712 Y14.48 E78.10687
G0 F225 X8.146 Y14.48
G1 F150 X13.797 Y8.829 E78.15448
G0 F225 X13.59 Y8.471
G1 F150 X7.58 Y14.48 E78.2051
G0 F225 X7.015 Y14.48
G1 F150 X13.383 Y8.112 E78.25875
G0 F225 X13.176 Y7.754
G1 F150 X6.449 Y14.48 E78.31541
G0 F225 X5.883 Y14.48
G1 F150 X12.969 Y7.394 E78.3751
G0 F225 X12.762 Y7.036
G1 F150 X5.317 Y14.481 E78.43782
G0 F225 X4.751 Y14.481
G1 F150 X12.555 Y6.677 E78.50356
G0 F225 X12.348 Y6.319
G1 F150 X4.186 Y14.481 E78.57232
G0 F225 X3.62 Y14.481
G1 F150 X12.141 Y5.96 E78.6441
G0 F225 X11.934 Y5.601
G1 F150 X3.054 Y14.481 E78.7189
G0 F225 X2.489 Y14.481
G1 F150 X11.727 Y5.243 E78.79672
G0 F225 X11.52 Y4.884
G1 F150 X1.923 Y14.481 E78.87757
G0 F225 X1.357 Y14.481
G1 F150 X11.313 Y4.526 E78.96144
G0 F225 X11.105 Y4.167
G1 F150 X0.791 Y14.481 E79.04832
G0 F225 X0.226 Y14.481
G1 F150 X10.898 Y3.809 E79.13822
G0 F225 X10.692 Y3.449
G1 F150 X-.339 Y14.481 E79.23115
G0 F225 X-.905 Y14.481
G1 F150 X10.484 Y3.091 E79.3271
G0 F225 X10.277 Y2.732
G1 F150 X-1.47 Y14.481 E79.42606
G0 F225 X-2.036 Y14.481
G1 F150 X10.07 Y2.374 E79.52805
G0 F225 X9.863 Y2.015
G1 F150 X-2.602 Y14.481 E79.63306
G0 F225 X-3.167 Y14.481
G1 F150 X9.656 Y1.656 E79.74109
G0 F225 X9.449 Y1.298
G1 F150 X-3.733 Y14.481 E79.85214
G0 F225 X-4.299 Y14.481
G1 F150 X9.242 Y0.939 E79.96621
G0 F225 X9.035 Y0.581
G1 F150 X-4.864 Y14.481 E80.0833
G0 F225 X-5.43 Y14.481
G1 F150 X8.828 Y0.222 E80.20341
G0 F225 X8.621 Y-.136
G1 F150 X-5.996 Y14.482 E80.32655
G0 F225 X-6.562 Y14.482
G1 F150 X8.414 Y-.494 E80.45271
G0 F225 X8.207 Y-.853
G1 F150 X-7.128 Y14.482 E80.58189
G0 F225 X-7.694 Y14.482
G1 F150 X8 Y-1.211 E80.71409
G0 F225 X7.793 Y-1.57
G1 F150 X-8.259 Y14.482 E80.84932
G0 F225 X-8.825 Y14.482
G1 F150 X7.585 Y-1.928 E80.98755
G0 F225 X7.379 Y-2.288
G1 F150 X-9.391 Y14.482 E81.12882
G0 F225 X-9.956 Y14.482
G1 F150 X7.172 Y-2.646 E81.27311
G0 F225 X6.965 Y-3.005
G1 F150 X-10.522 Y14.482 E81.42042
G0 F225 X-11.088 Y14.482
G1 F150 X6.757 Y-3.363 E81.57075
G0 F225 X6.55 Y-3.722
G1 F150 X-11.653 Y14.482 E81.72409
G0 F225 X-12.219 Y14.482
G1 F150 X6.344 Y-4.081 E81.88047
G0 F225 X6.136 Y-4.439
G1 F150 X-12.785 Y14.482 E82.03986
G0 F225 X-13.35 Y14.482
G1 F150 X5.929 Y-4.798 E82.20227
G0 F225 X5.722 Y-5.156
G1 F150 X-13.916 Y14.482 E82.3677
G0 F225 X-14.482 Y14.482
G1 F150 X5.515 Y-5.515 E82.53616
G0 F225 X5.308 Y-5.874
G1 F150 X-15.047 Y14.482 E82.70763
G0 F225 X-15.613 Y14.482
G1 F150 X5.101 Y-6.233 E82.88213
G0 F225 X4.894 Y-6.591
G1 F150 X-16.179 Y14.482 E83.05965
G0 F225 X-16.527 Y14.265
G1 F150 X4.687 Y-6.95 E83.23836
G0 F225 X4.48 Y-7.308
G1 F150 X-16.716 Y13.887 E83.41691
G1 X-16.786 Y13.957
G0 F225 X-15.948 Y12.553
G1 F150 X4.273 Y-7.667 E83.58725
G0 F225 X4.066 Y-8.026
G1 F150 X-15.175 Y11.216 E83.74934
G1 X-15.245 Y11.286
G0 F225 X-14.403 Y9.877
G1 F150 X3.859 Y-8.384 E83.90318
G0 F225 X3.652 Y-8.743
G1 F150 X-13.63 Y8.539 E84.04876
G1 X-13.7 Y8.609
G0 F225 X-12.857 Y7.2
G1 F150 X3.445 Y-9.101 E84.18608
G0 F225 X3.237 Y-9.46
G1 F150 X-12.085 Y5.862 E84.31516
G1 X-12.155 Y5.932
G0 F225 X-11.312 Y4.524
G1 F150 X3.031 Y-9.819 E84.43598
G0 F225 X2.824 Y-10.178
G1 F150 X-10.539 Y3.185 E84.54855
G1 X-10.609 Y3.255
G0 F225 X-9.767 Y1.847
G1 F150 X2.617 Y-10.536 E84.65287
G0 F225 X2.409 Y-10.895
G1 F150 X-8.994 Y0.509 E84.74893
G1 X-9.064 Y0.579
G0 F225 X-8.221 Y-.829
G1 F150 X2.202 Y-11.253 E84.83674
G0 F225 X1.996 Y-11.612
G1 F150 X-7.448 Y-2.167 E84.9163
G1 X-7.518 Y-2.097
G0 F225 X-6.676 Y-3.505
G1 F150 X1.788 Y-11.971 E84.98761
G0 F225 X1.581 Y-12.329
G1 F150 X-5.903 Y-4.844 E85.05066
G1 X-5.973 Y-4.774
G0 F225 X-5.13 Y-6.182
G1 F150 X1.374 Y-12.688 E85.10546
G0 F225 X1.167 Y-13.046
G1 F150 X-4.358 Y-7.52 E85.15201
G1 X-4.428 Y-7.45
G0 F225 X-3.585 Y-8.859
G1 F150 X0.96 Y-13.405 E85.1903
G0 F225 X0.753 Y-13.764
G1 F150 X-2.812 Y-10.197 E85.22034
G1 X-2.882 Y-10.127
G0 F225 X-2.04 Y-11.536
G1 F150 X0.546 Y-14.123 E85.24213
G0 F225 X0.337 Y-14.48
G1 F150 X-1.267 Y-12.874 E85.25565
G1 X-1.337 Y-12.804
G0 F225 X-.494 Y-14.212
G1 F150 X-.227 Y-14.48 E85.2579
G0 F225 X-.227 Y-14.462
;MESH:NONMESH
G0 F120 X-.227 Y-14.462 Z0.5
G0 F225 X17.052 Y13.872
G0 X17.377 Y13.865
;TIME_ELAPSED:2416.317830
;LAYER:2
;TYPE:WALL-INNER
;MESH:Tri_v2_small.stl
G1 F300 X0.677 Y-15.061 E85.45686
G1 X-.677 Y-15.061 E85.46492
G1 X-17.377 Y13.865 E85.66388
G1 X-16.779 Y15.062 E85.67185
G1 X16.778 Y15.061 E85.87174
G1 X17.377 Y13.865 E85.87971
G0 X17.831 Y13.851
;TYPE:WALL-OUTER
G1 F150 X0.908 Y-15.461 E86.08132
G1 X-.908 Y-15.461 E86.09213
G1 X-17.831 Y13.851 E86.29375
G1 X-17.026 Y15.462 E86.30447
G1 X17.026 Y15.461 E86.50731
G1 X17.831 Y13.851 E86.51803
G0 F300 X17.731 Y13.678
G0 X16.945 Y13.879
;TYPE:SKIN
G1 F150 X16.544 Y14.68 E86.52337
G1 X-16.544 Y14.682 E86.72046
G1 X-16.945 Y13.879 E86.72581
G1 X-.457 Y-14.681 E86.92225
G1 X0.457 Y-14.681 E86.92769
G1 X16.945 Y13.879 E87.12413
G0 F300 X0.227 Y-14.48
G1 F150 X0.495 Y-14.212 E87.12639
G0 F300 X-.337 Y-14.48
G1 F150 X1.268 Y-12.873 E87.13992
G1 X1.338 Y-12.803
G0 F300 X2.04 Y-11.535
G1 F150 X-.547 Y-14.123 E87.16171
G0 F300 X-.754 Y-13.765
G1 F150 X2.813 Y-10.197 E87.19177
G1 X2.883 Y-10.127
G0 F300 X3.586 Y-8.858
G1 F150 X-.96 Y-13.406 E87.23007
G0 F300 X-1.168 Y-13.047
G1 F150 X4.359 Y-7.52 E87.27663
G1 X4.429 Y-7.45
G0 F300 X5.131 Y-6.182
G1 F150 X-1.375 Y-12.689 E87.33144
G0 F300 X-1.582 Y-12.33
G1 F150 X5.904 Y-4.843 E87.39451
G1 X5.974 Y-4.773
G0 F300 X6.677 Y-3.505
G1 F150 X-1.789 Y-11.972 E87.46583
G0 F300 X-1.996 Y-11.613
G1 F150 X7.449 Y-2.167 E87.5454
G1 X7.519 Y-2.097
G0 F300 X8.222 Y-.828
G1 F150 X-2.203 Y-11.254 E87.63322
G0 F300 X-2.41 Y-10.895
G1 F150 X8.995 Y0.509 E87.72929
G1 X9.065 Y0.579
G0 F300 X9.767 Y1.848
G1 F150 X-2.617 Y-10.537 E87.83362
G0 F300 X-2.824 Y-10.178
G1 F150 X10.54 Y3.186 E87.9462
G1 X10.61 Y3.256
G0 F300 X11.313 Y4.524
G1 F150 X-3.032 Y-9.82 E88.06704
G0 F300 X-3.238 Y-9.461
G1 F150 X12.085 Y5.863 E88.19612
G1 X12.155 Y5.933
G0 F300 X12.858 Y7.201
G1 F150 X-3.445 Y-9.102 E88.33346
G0 F300 X-3.652 Y-8.744
G1 F150 X13.63 Y8.539 E88.47905
G1 X13.7 Y8.609
G0 F300 X14.403 Y9.878
G1 F150 X-3.86 Y-8.385 E88.6329
G0 F300 X-4.067 Y-8.027
G1 F150 X15.176 Y11.216 E88.795
G1 X15.246 Y11.286
G0 F300 X15.948 Y12.554
G1 F150 X-4.273 Y-7.667 E88.96534
G0 F300 X-4.48 Y-7.309
G1 F150 X16.716 Y13.888 E89.1439
G0 F300 X16.527 Y14.265
G1 F150 X-4.688 Y-6.95 E89.32262
G0 F300 X-4.895 Y-6.592
G1 F150 X16.177 Y14.48 E89.50013
G0 F300 X15.611 Y14.48
G1 F150 X-5.102 Y-6.233 E89.67461
G0 F300 X-5.309 Y-5.875
G1 F150 X15.045 Y14.48 E89.84608
G0 F300 X14.48 Y14.48
G1 F150 X-5.516 Y-5.516 E90.01453
G0 F300 X-5.723 Y-5.157
G1 F150 X13.914 Y14.48 E90.17995
G0 F300 X13.348 Y14.48
G1 F150 X-5.93 Y-4.799 E90.34235
G0 F300 X-6.137 Y-4.44
G1 F150 X12.783 Y14.48 E90.50173
G0 F300 X12.217 Y14.48
G1 F150 X-6.344 Y-4.082 E90.6581
G0 F300 X-6.551 Y-3.722
G1 F150 X11.651 Y14.48 E90.81143
G0 F300 X11.086 Y14.48
G1 F150 X-6.758 Y-3.364 E90.96175
G0 F300 X-6.965 Y-3.005
G1 F150 X10.52 Y14.48 E91.10904
G0 F300 X9.954 Y14.48
G1 F150 X-7.172 Y-2.647 E91.25332
G0 F300 X-7.38 Y-2.288
G1 F150 X9.388 Y14.48 E91.39457
G0 F300 X8.823 Y14.48
G1 F150 X-7.586 Y-1.929 E91.5328
G0 F300 X-7.793 Y-1.571
G1 F150 X8.257 Y14.48 E91.66801
G0 F300 X7.691 Y14.48
G1 F150 X-8 Y-1.212 E91.80019
G0 F300 X-8.208 Y-.854
G1 F150 X7.126 Y14.48 E91.92937
G0 F300 X6.56 Y14.48
G1 F150 X-8.415 Y-.495 E92.05552
G0 F300 X-8.622 Y-.137
G1 F150 X5.994 Y14.48 E92.17865
G0 F300 X5.429 Y14.48
G1 F150 X-8.828 Y0.222 E92.29875
G0 F300 X-9.036 Y0.58
G1 F150 X4.864 Y14.48 E92.41585
G0 F300 X4.298 Y14.48
G1 F150 X-9.243 Y0.939 E92.52992
G0 F300 X-9.45 Y1.297
G1 F150 X3.732 Y14.48 E92.64096
G0 F300 X3.167 Y14.48
G1 F150 X-9.657 Y1.656 E92.74899
G0 F300 X-9.864 Y2.015
G1 F150 X2.601 Y14.48 E92.854
G0 F300 X2.035 Y14.48
G1 F150 X-10.071 Y2.373 E92.95598
G0 F300 X-10.278 Y2.732
G1 F150 X1.47 Y14.48 E93.05495
G0 F300 X0.904 Y14.48
G1 F150 X-10.485 Y3.09 E93.1509
G0 F300 X-10.692 Y3.449
G1 F150 X0.338 Y14.48 E93.24382
G0 F300 X-.226 Y14.48
G1 F150 X-10.899 Y3.808 E93.33372
G0 F300 X-11.106 Y4.166
G1 F150 X-.792 Y14.48 E93.42061
G0 F300 X-1.358 Y14.48
G1 F150 X-11.313 Y4.525 E93.50447
G0 F300 X-11.52 Y4.883
G1 F150 X-1.924 Y14.48 E93.58531
G0 F300 X-2.489 Y14.48
G1 F150 X-11.728 Y5.242 E93.66313
G0 F300 X-11.935 Y5.6
G1 F150 X-3.055 Y14.48 E93.73794
G0 F300 X-3.621 Y14.48
G1 F150 X-12.141 Y5.96 E93.80971
G0 F300 X-12.348 Y6.318
G1 F150 X-4.186 Y14.48 E93.87847
G0 F300 X-4.752 Y14.48
G1 F150 X-12.556 Y6.677 E93.94421
G0 F300 X-12.763 Y7.035
G1 F150 X-5.318 Y14.48 E94.00692
G0 F300 X-5.883 Y14.481
G1 F150 X-12.97 Y7.394 E94.06662
G0 F300 X-13.176 Y7.753
G1 F150 X-6.448 Y14.481 E94.1233
G0 F300 X-7.014 Y14.481
G1 F150 X-13.384 Y8.111 E94.17696
G0 F300 X-13.591 Y8.47
G1 F150 X-7.58 Y14.481 E94.2276
G0 F300 X-8.145 Y14.481
G1 F150 X-13.798 Y8.828 E94.27522
G0 F300 X-14.005 Y9.187
G1 F150 X-8.711 Y14.481 E94.31982
G0 F300 X-9.277 Y14.481
G1 F150 X-14.212 Y9.546 E94.36139
G0 F300 X-14.419 Y9.905
G1 F150 X-9.842 Y14.481 E94.39994
G0 F300 X-10.408 Y14.481
G1 F150 X-14.626 Y10.263 E94.43547
G0 F300 X-14.833 Y10.622
G1 F150 X-10.974 Y14.481 E94.46798
G0 F300 X-11.539 Y14.481
G1 F150 X-15.04 Y10.98 E94.49747
G0 F300 X-15.248 Y11.339
G1 F150 X-12.105 Y14.481 E94.52395
G0 F300 X-12.671 Y14.481
G1 F150 X-15.454 Y11.698 E94.54739
G0 F300 X-15.661 Y12.056
G1 F150 X-13.237 Y14.481 E94.56781
G0 F300 X-13.802 Y14.481
G1 F150 X-15.868 Y12.415 E94.58522
G0 F300 X-16.076 Y12.773
G1 F150 X-14.368 Y14.481 E94.59961
G0 F300 X-14.934 Y14.481
G1 F150 X-16.283 Y13.132 E94.61097
G0 F300 X-16.489 Y13.491
G1 F150 X-15.499 Y14.481 E94.61931
G0 F300 X-16.065 Y14.481
G1 F150 X-16.696 Y13.85 E94.62463
G1 X-16.766 Y13.78
G0 F300 X-16.67 Y13.836
;MESH:NONMESH
G0 F120 X-16.67 Y13.836 Z0.6
G0 F300 X17.052 Y13.872
G0 X17.377 Y13.865
;TIME_ELAPSED:3048.330256
;LAYER:3
;TYPE:WALL-INNER
;MESH:Tri_v2_small.stl
G1 X0.677 Y-15.061 E94.82358
G1 X-.677 Y-15.061 E94.83165
G1 X-17.377 Y13.865 E95.03061
G1 X-16.779 Y15.062 E95.03858
G1 X16.778 Y15.061 E95.23846
G1 X17.377 Y13.865 E95.24643
G0 X17.831 Y13.851
;TYPE:WALL-OUTER
G1 F150 X0.908 Y-15.461 E95.44804
G1 X-.908 Y-15.461 E95.45886
G1 X-17.831 Y13.851 E95.66047
G1 X-17.026 Y15.462 E95.6712
G1 X17.026 Y15.461 E95.87404
G1 X17.831 Y13.851 E95.88476
G0 F300 X17.731 Y13.678
G0 X16.945 Y13.879
;TYPE:SKIN
G1 F150 X16.544 Y14.68 E95.8901
G1 X-16.544 Y14.682 E96.08719
G1 X-16.945 Y13.879 E96.09254
G1 X-.457 Y-14.681 E96.28897
G1 X0.457 Y-14.681 E96.29442
G1 X16.945 Y13.879 E96.49086
G0 F300 X16.066 Y14.48
G1 F150 X16.696 Y13.85 E96.49616
G0 F300 X16.489 Y13.492
G1 F150 X15.5 Y14.48 E96.50449
G0 F300 X14.934 Y14.48
G1 F150 X16.282 Y13.133 E96.51584
G0 F300 X16.075 Y12.774
G1 F150 X14.369 Y14.48 E96.53021
G0 F300 X13.803 Y14.48
G1 F150 X15.868 Y12.416 E96.5476
G0 F300 X15.661 Y12.057
G1 F150 X13.237 Y14.48 E96.56802
G0 F300 X12.672 Y14.48
G1 F150 X15.453 Y11.699 E96.59145
G0 F300 X15.247 Y11.339
G1 F150 X12.106 Y14.48 E96.61791
G0 F300 X11.54 Y14.48
G1 F150 X15.04 Y10.981 E96.64739
G0 F300 X14.832 Y10.622
G1 F150 X10.975 Y14.48 E96.67988
G0 F300 X10.409 Y14.48
G1 F150 X14.625 Y10.264 E96.7154
G0 F300 X14.418 Y9.905
G1 F150 X9.843 Y14.48 E96.75394
G0 F300 X9.277 Y14.48
G1 F150 X14.211 Y9.547 E96.7955
G0 F300 X14.004 Y9.188
G1 F150 X8.712 Y14.48 E96.84008
G0 F300 X8.146 Y14.48
G1 F150 X13.797 Y8.829 E96.88768
G0 F300 X13.59 Y8.471
G1 F150 X7.58 Y14.48 E96.93831
G0 F300 X7.015 Y14.48
G1 F150 X13.383 Y8.112 E96.99195
G0 F300 X13.176 Y7.754
G1 F150 X6.449 Y14.48 E97.04861
G0 F300 X5.883 Y14.48
G1 F150 X12.969 Y7.394 E97.10831
G0 F300 X12.762 Y7.036
G1 F150 X5.317 Y14.481 E97.17102
G0 F300 X4.751 Y14.481
G1 F150 X12.555 Y6.677 E97.23676
G0 F300 X12.348 Y6.319
G1 F150 X4.186 Y14.481 E97.30552
G0 F300 X3.62 Y14.481
G1 F150 X12.141 Y5.96 E97.3773
G0 F300 X11.934 Y5.601
G1 F150 X3.054 Y14.481 E97.45211
G0 F300 X2.489 Y14.481
G1 F150 X11.727 Y5.243 E97.52993
G0 F300 X11.52 Y4.884
G1 F150 X1.923 Y14.481 E97.61077
G0 F300 X1.357 Y14.481
G1 F150 X11.313 Y4.526 E97.69464
G0 F300 X11.105 Y4.167
G1 F150 X0.791 Y14.481 E97.78152
G0 F300 X0.226 Y14.481
G1 F150 X10.898 Y3.809 E97.87142
G0 F300 X10.692 Y3.449
G1 F150 X-.339 Y14.481 E97.96435
G0 F300 X-.905 Y14.481
G1 F150 X10.484 Y3.091 E98.0603
G0 F300 X10.277 Y2.732
G1 F150 X-1.47 Y14.481 E98.15927
G0 F300 X-2.036 Y14.481
G1 F150 X10.07 Y2.374 E98.26125
G0 F300 X9.863 Y2.015
G1 F150 X-2.602 Y14.481 E98.36626
G0 F300 X-3.167 Y14.481
G1 F150 X9.656 Y1.656 E98.47429
G0 F300 X9.449 Y1.298
G1 F150 X-3.733 Y14.481 E98.58534
G0 F300 X-4.299 Y14.481
G1 F150 X9.242 Y0.939 E98.69941
G0 F300 X9.035 Y0.581
G1 F150 X-4.864 Y14.481 E98.8165
G0 F300 X-5.43 Y14.481
G1 F150 X8.828 Y0.222 E98.93662
G0 F300 X8.621 Y-.136
G1 F150 X-5.996 Y14.482 E99.05975
G0 F300 X-6.562 Y14.482
G1 F150 X8.414 Y-.494 E99.18591
G0 F300 X8.207 Y-.853
G1 F150 X-7.128 Y14.482 E99.31509
G0 F300 X-7.694 Y14.482
G1 F150 X8 Y-1.211 E99.4473
G0 F300 X7.793 Y-1.57
G1 F150 X-8.259 Y14.482 E99.58252
G0 F300 X-8.825 Y14.482
G1 F150 X7.585 Y-1.928 E99.72076
G0 F300 X7.379 Y-2.288
G1 F150 X-9.391 Y14.482 E99.86203
G0 F300 X-9.956 Y14.482
G1 F150 X7.172 Y-2.646 E100.00631
G0 F300 X6.965 Y-3.005
G1 F150 X-10.522 Y14.482 E100.15362
G0 F300 X-11.088 Y14.482
G1 F150 X6.757 Y-3.363 E100.30395
G0 F300 X6.55 Y-3.722
G1 F150 X-11.653 Y14.482 E100.4573
G0 F300 X-12.219 Y14.482
G1 F150 X6.344 Y-4.081 E100.61367
G0 F300 X6.136 Y-4.439
G1 F150 X-12.785 Y14.482 E100.77306
G0 F300 X-13.35 Y14.482
G1 F150 X5.929 Y-4.798 E100.93547
G0 F300 X5.722 Y-5.156
G1 F150 X-13.916 Y14.482 E101.1009
G0 F300 X-14.482 Y14.482
G1 F150 X5.515 Y-5.515 E101.26936
G0 F300 X5.308 Y-5.874
G1 F150 X-15.047 Y14.482 E101.44083
G0 F300 X-15.613 Y14.482
G1 F150 X5.101 Y-6.233 E101.61533
G0 F300 X4.894 Y-6.591
G1 F150 X-16.179 Y14.482 E101.79285
G0 F300 X-16.527 Y14.265
G1 F150 X4.687 Y-6.95 E101.97156
G0 F300 X4.48 Y-7.308
G1 F150 X-16.716 Y13.887 E102.15012
G1 X-16.786 Y13.957
G0 F300 X-15.948 Y12.553
G1 F150 X4.273 Y-7.667 E102.32045
G0 F300 X4.066 Y-8.026
G1 F150 X-15.175 Y11.216 E102.48254
G1 X-15.245 Y11.286
G0 F300 X-14.403 Y9.877
G1 F150 X3.859 Y-8.384 E102.63638
G0 F300 X3.652 Y-8.743
G1 F150 X-13.63 Y8.539 E102.78196
G1 X-13.7 Y8.609
G0 F300 X-12.857 Y7.2
G1 F150 X3.445 Y-9.101 E102.91929
G0 F300 X3.237 Y-9.46
G1 F150 X-12.085 Y5.862 E103.04836
G1 X-12.155 Y5.932
G0 F300 X-11.312 Y4.524
G1 F150 X3.031 Y-9.819 E103.16919
G0 F300 X2.824 Y-10.178
G1 F150 X-10.539 Y3.185 E103.28176
G1 X-10.609 Y3.255
G0 F300 X-9.767 Y1.847
G1 F150 X2.617 Y-10.536 E103.38607
G0 F300 X2.409 Y-10.895
G1 F150 X-8.994 Y0.509 E103.48214
G1 X-9.064 Y0.579
G0 F300 X-8.221 Y-.829
G1 F150 X2.202 Y-11.253 E103.56994
G0 F300 X1.996 Y-11.612
G1 F150 X-7.448 Y-2.167 E103.64951
G1 X-7.518 Y-2.097
G0 F300 X-6.676 Y-3.505
G1 F150 X1.788 Y-11.971 E103.72081
G0 F300 X1.581 Y-12.329
G1 F150 X-5.903 Y-4.844 E103.78386
G1 X-5.973 Y-4.774
G0 F300 X-5.13 Y-6.182
G1 F150 X1.374 Y-12.688 E103.83866
G0 F300 X1.167 Y-13.046
G1 F150 X-4.358 Y-7.52 E103.88521
G1 X-4.428 Y-7.45
G0 F300 X-3.585 Y-8.859
G1 F150 X0.96 Y-13.405 E103.9235
G0 F300 X0.753 Y-13.764
G1 F150 X-2.812 Y-10.197 E103.95354
G1 X-2.882 Y-10.127
G0 F300 X-2.04 Y-11.536
G1 F150 X0.546 Y-14.123 E103.97533
G0 F300 X0.337 Y-14.48
G1 F150 X-1.267 Y-12.874 E103.98885
G1 X-1.337 Y-12.804
G0 F300 X-.494 Y-14.212
G1 F150 X-.227 Y-14.48 E103.9911
G0 F300 X-.227 Y-14.462
;MESH:NONMESH
G0 F120 X-.227 Y-14.462 Z0.7
G0 F300 X17.052 Y13.872
G0 X17.377 Y13.865
;TIME_ELAPSED:3674.333017
;LAYER:4
;TYPE:WALL-INNER
;MESH:Tri_v2_small.stl
G1 X0.677 Y-15.061 E104.19006
G1 X-.677 Y-15.061 E104.19813
G1 X-17.377 Y13.865 E104.39708
G1 X-16.779 Y15.062 E104.40505
G1 X16.778 Y15.061 E104.60494
G1 X17.377 Y13.865 E104.61291
G0 X17.831 Y13.851
;TYPE:WALL-OUTER
G1 F150 X0.908 Y-15.461 E104.81452
G1 X-.908 Y-15.461 E104.82534
G1 X-17.831 Y13.851 E105.02695
G1 X-17.026 Y15.462 E105.03768
G1 X17.026 Y15.461 E105.24052
G1 X17.831 Y13.851 E105.25124
G0 F300 X17.731 Y13.678
G0 X16.945 Y13.879
;TYPE:SKIN
G1 F150 X16.544 Y14.68 E105.25657
G1 X-16.544 Y14.682 E105.45367
G1 X-16.945 Y13.879 E105.45901
G1 X-.457 Y-14.681 E105.65545
G1 X0.457 Y-14.681 E105.6609
G1 X16.945 Y13.879 E105.85733
G0 F300 X0.227 Y-14.48
G1 F150 X0.495 Y-14.212 E105.85959
G0 F300 X-.337 Y-14.48
G1 F150 X1.268 Y-12.873 E105.87312
G1 X1.338 Y-12.803
G0 F300 X2.04 Y-11.535
G1 F150 X-.547 Y-14.123 E105.89492
G0 F300 X-.754 Y-13.765
G1 F150 X2.813 Y-10.197 E105.92497
G1 X2.883 Y-10.127
G0 F300 X3.586 Y-8.858
G1 F150 X-.96 Y-13.406 E105.96327
G0 F300 X-1.168 Y-13.047
G1 F150 X4.359 Y-7.52 E106.00983
G1 X4.429 Y-7.45
G0 F300 X5.131 Y-6.182
G1 F150 X-1.375 Y-12.689 E106.06464
G0 F300 X-1.582 Y-12.33
G1 F150 X5.904 Y-4.843 E106.12771
G1 X5.974 Y-4.773
G0 F300 X6.677 Y-3.505
G1 F150 X-1.789 Y-11.972 E106.19903
G0 F300 X-1.996 Y-11.613
G1 F150 X7.449 Y-2.167 E106.2786
G1 X7.519 Y-2.097
G0 F300 X8.222 Y-.828
G1 F150 X-2.203 Y-11.254 E106.36643
G0 F300 X-2.41 Y-10.895
G1 F150 X8.995 Y0.509 E106.4625
G1 X9.065 Y0.579
G0 F300 X9.767 Y1.848
G1 F150 X-2.617 Y-10.537 E106.56682
G0 F300 X-2.824 Y-10.178
G1 F150 X10.54 Y3.186 E106.6794
G1 X10.61 Y3.256
G0 F300 X11.313 Y4.524
G1 F150 X-3.032 Y-9.82 E106.80024
G0 F300 X-3.238 Y-9.461
G1 F150 X12.085 Y5.863 E106.92933
G1 X12.155 Y5.933
G0 F300 X12.858 Y7.201
G1 F150 X-3.445 Y-9.102 E107.06666
G0 F300 X-3.652 Y-8.744
G1 F150 X13.63 Y8.539 E107.21225
G1 X13.7 Y8.609
G0 F300 X14.403 Y9.878
G1 F150 X-3.86 Y-8.385 E107.3661
G0 F300 X-4.067 Y-8.027
G1 F150 X15.176 Y11.216 E107.5282
G1 X15.246 Y11.286
G0 F300 X15.948 Y12.554
G1 F150 X-4.273 Y-7.667 E107.69854
G0 F300 X-4.48 Y-7.309
G1 F150 X16.716 Y13.888 E107.8771
G0 F300 X16.527 Y14.265
G1 F150 X-4.688 Y-6.95 E108.05582
G0 F300 X-4.895 Y-6.592
G1 F150 X16.177 Y14.48 E108.23333
G0 F300 X15.611 Y14.48
G1 F150 X-5.102 Y-6.233 E108.40782
G0 F300 X-5.309 Y-5.875
G1 F150 X15.045 Y14.48 E108.57928
G0 F300 X14.48 Y14.48
G1 F150 X-5.516 Y-5.516 E108.74773
G0 F300 X-5.723 Y-5.157
G1 F150 X13.914 Y14.48 E108.91315
G0 F300 X13.348 Y14.48
G1 F150 X-5.93 Y-4.799 E109.07555
G0 F300 X-6.137 Y-4.44
G1 F150 X12.783 Y14.48 E109.23494
G0 F300 X12.217 Y14.48
G1 F150 X-6.344 Y-4.082 E109.3913
G0 F300 X-6.551 Y-3.722
G1 F150 X11.651 Y14.48 E109.54463
G0 F300 X11.086 Y14.48
G1 F150 X-6.758 Y-3.364 E109.69495
G0 F300 X-6.965 Y-3.005
G1 F150 X10.52 Y14.48 E109.84224
G0 F300 X9.954 Y14.48
G1 F150 X-7.172 Y-2.647 E109.98652
G0 F300 X-7.38 Y-2.288
G1 F150 X9.388 Y14.48 E110.12777
G0 F300 X8.823 Y14.48
G1 F150 X-7.586 Y-1.929 E110.266
G0 F300 X-7.793 Y-1.571
G1 F150 X8.257 Y14.48 E110.40121
G0 F300 X7.691 Y14.48
G1 F150 X-8 Y-1.212 E110.5334
G0 F300 X-8.208 Y-.854
G1 F150 X7.126 Y14.48 E110.66257
G0 F300 X6.56 Y14.48
G1 F150 X-8.415 Y-.495 E110.78872
G0 F300 X-8.622 Y-.137
G1 F150 X5.994 Y14.48 E110.91185
G0 F300 X5.429 Y14.48
G1 F150 X-8.828 Y0.222 E111.03196
G0 F300 X-9.036 Y0.58
G1 F150 X4.864 Y14.48 E111.14905
G0 F300 X4.298 Y14.48
G1 F150 X-9.243 Y0.939 E111.26312
G0 F300 X-9.45 Y1.297
G1 F150 X3.732 Y14.48 E111.37417
G0 F300 X3.167 Y14.48
G1 F150 X-9.657 Y1.656 E111.4822
G0 F300 X-9.864 Y2.015
G1 F150 X2.601 Y14.48 E111.5872
G0 F300 X2.035 Y14.48
G1 F150 X-10.071 Y2.373 E111.68919
G0 F300 X-10.278 Y2.732
G1 F150 X1.47 Y14.48 E111.78815
G0 F300 X0.904 Y14.48
G1 F150 X-10.485 Y3.09 E111.8841
G0 F300 X-10.692 Y3.449
G1 F150 X0.338 Y14.48 E111.97702
G0 F300 X-.226 Y14.48
G1 F150 X-10.899 Y3.808 E112.06693
G0 F300 X-11.106 Y4.166
G1 F150 X-.792 Y14.48 E112.15381
G0 F300 X-1.358 Y14.48
G1 F150 X-11.313 Y4.525 E112.23767
G0 F300 X-11.52 Y4.883
G1 F150 X-1.924 Y14.48 E112.31851
G0 F300 X-2.489 Y14.48
G1 F150 X-11.728 Y5.242 E112.39634
G0 F300 X-11.935 Y5.6
G1 F150 X-3.055 Y14.48 E112.47114
G0 F300 X-3.621 Y14.48
G1 F150 X-12.141 Y5.96 E112.54292
G0 F300 X-12.348 Y6.318
G1 F150 X-4.186 Y14.48 E112.61167
G0 F300 X-4.752 Y14.48
G1 F150 X-12.556 Y6.677 E112.67741
G0 F300 X-12.763 Y7.035
G1 F150 X-5.318 Y14.48 E112.74013
G0 F300 X-5.883 Y14.481
G1 F150 X-12.97 Y7.394 E112.79983
G0 F300 X-13.176 Y7.753
G1 F150 X-6.448 Y14.481 E112.8565
G0 F300 X-7.014 Y14.481
G1 F150 X-13.384 Y8.111 E112.91016
G0 F300 X-13.591 Y8.47
G1 F150 X-7.58 Y14.481 E112.9608
G0 F300 X-8.145 Y14.481
G1 F150 X-13.798 Y8.828 E113.00842
G0 F300 X-14.005 Y9.187
G1 F150 X-8.711 Y14.481 E113.05302
G0 F300 X-9.277 Y14.481
G1 F150 X-14.212 Y9.546 E113.09459
G0 F300 X-14.419 Y9.905
G1 F150 X-9.842 Y14.481 E113.13314
G0 F300 X-10.408 Y14.481
G1 F150 X-14.626 Y10.263 E113.16868
G0 F300 X-14.833 Y10.622
G1 F150 X-10.974 Y14.481 E113.20118
G0 F300 X-11.539 Y14.481
G1 F150 X-15.04 Y10.98 E113.23068
G0 F300 X-15.248 Y11.339
G1 F150 X-12.105 Y14.481 E113.25715
G0 F300 X-12.671 Y14.481
G1 F150 X-15.454 Y11.698 E113.28059
G0 F300 X-15.661 Y12.056
G1 F150 X-13.237 Y14.481 E113.30102
G0 F300 X-13.802 Y14.481
G1 F150 X-15.868 Y12.415 E113.31842
G0 F300 X-16.076 Y12.773
G1 F150 X-14.368 Y14.481 E113.33281
G0 F300 X-14.934 Y14.481
G1 F150 X-16.283 Y13.132 E113.34417
G0 F300 X-16.489 Y13.491
G1 F150 X-15.499 Y14.481 E113.35251
G0 F300 X-16.065 Y14.481
G1 F150 X-16.696 Y13.85 E113.35783
G1 X-16.766 Y13.78
G0 F300 X-16.67 Y13.836
;MESH:NONMESH
G0 F120 X-16.67 Y13.836 Z0.8
G0 F300 X17.052 Y13.872
G0 X17.377 Y13.865
;TIME_ELAPSED:4306.345443
;LAYER:5
;TYPE:WALL-INNER
;MESH:Tri_v2_small.stl
G1 X0.677 Y-15.061 E113.55679
G1 X-.677 Y-15.061 E113.56485
G1 X-17.377 Y13.865 E113.76381
G1 X-16.779 Y15.062 E113.77178
G1 X16.778 Y15.061 E113.97167
G1 X17.377 Y13.865 E113.97963
G0 X17.831 Y13.851
;TYPE:WALL-OUTER
G1 F150 X0.908 Y-15.461 E114.18125
G1 X-.908 Y-15.461 E114.19206
G1 X-17.831 Y13.851 E114.39368
G1 X-17.026 Y15.462 E114.4044
G1 X17.026 Y15.461 E114.60724
G1 X17.831 Y13.851 E114.61796
G0 F300 X17.731 Y13.678
G0 X16.945 Y13.879
;TYPE:SKIN
G1 F150 X16.544 Y14.68 E114.6233
G1 X-16.544 Y14.682 E114.82039
G1 X-16.945 Y13.879 E114.82574
G1 X-.457 Y-14.681 E115.02218
G1 X0.457 Y-14.681 E115.02762
G1 X16.945 Y13.879 E115.22406
G0 F300 X16.066 Y14.48
G1 F150 X16.696 Y13.85 E115.22937
G0 F300 X16.489 Y13.492
G1 F150 X15.5 Y14.48 E115.23769
G0 F300 X14.934 Y14.48
G1 F150 X16.282 Y13.133 E115.24904
G0 F300 X16.075 Y12.774
G1 F150 X14.369 Y14.48 E115.26342
G0 F300 X13.803 Y14.48
G1 F150 X15.868 Y12.416 E115.28081
G0 F300 X15.661 Y12.057
G1 F150 X13.237 Y14.48 E115.30122
G0 F300 X12.672 Y14.48
G1 F150 X15.453 Y11.699 E115.32465
G0 F300 X15.247 Y11.339
G1 F150 X12.106 Y14.48 E115.35111
G0 F300 X11.54 Y14.48
G1 F150 X15.04 Y10.981 E115.38059
G0 F300 X14.832 Y10.622
G1 F150 X10.975 Y14.48 E115.41309
G0 F300 X10.409 Y14.48
G1 F150 X14.625 Y10.264 E115.4486
G0 F300 X14.418 Y9.905
G1 F150 X9.843 Y14.48 E115.48714
G0 F300 X9.277 Y14.48
G1 F150 X14.211 Y9.547 E115.5287
G0 F300 X14.004 Y9.188
G1 F150 X8.712 Y14.48 E115.57328
G0 F300 X8.146 Y14.48
G1 F150 X13.797 Y8.829 E115.62088
G0 F300 X13.59 Y8.471
G1 F150 X7.58 Y14.48 E115.67151
G0 F300 X7.015 Y14.48
G1 F150 X13.383 Y8.112 E115.72515
G0 F300 X13.176 Y7.754
G1 F150 X6.449 Y14.48 E115.78182
G0 F300 X5.883 Y14.48
G1 F150 X12.969 Y7.394 E115.84151
G0 F300 X12.762 Y7.036
G1 F150 X5.317 Y14.481 E115.90423
G0 F300 X4.751 Y14.481
G1 F150 X12.555 Y6.677 E115.96997
G0 F300 X12.348 Y6.319
G1 F150 X4.186 Y14.481 E116.03872
G0 F300 X3.62 Y14.481
G1 F150 X12.141 Y5.96 E116.11051
G0 F300 X11.934 Y5.601
G1 F150 X3.054 Y14.481 E116.18531
G0 F300 X2.489 Y14.481
G1 F150 X11.727 Y5.243 E116.26313
G0 F300 X11.52 Y4.884
G1 F150 X1.923 Y14.481 E116.34398
G0 F300 X1.357 Y14.481
G1 F150 X11.313 Y4.526 E116.42784
G0 F300 X11.105 Y4.167
G1 F150 X0.791 Y14.481 E116.51473
G0 F300 X0.226 Y14.481
G1 F150 X10.898 Y3.809 E116.60463
G0 F300 X10.692 Y3.449
G1 F150 X-.339 Y14.481 E116.69756
G0 F300 X-.905 Y14.481
G1 F150 X10.484 Y3.091 E116.7935
G0 F300 X10.277 Y2.732
G1 F150 X-1.47 Y14.481 E116.89247
G0 F300 X-2.036 Y14.481
G1 F150 X10.07 Y2.374 E116.99445
G0 F300 X9.863 Y2.015
G1 F150 X-2.602 Y14.481 E117.09946
G0 F300 X-3.167 Y14.481
G1 F150 X9.656 Y1.656 E117.20749
G0 F300 X9.449 Y1.298
G1 F150 X-3.733 Y14.481 E117.31854
G0 F300 X-4.299 Y14.481
G1 F150 X9.242 Y0.939 E117.43262
G0 F300 X9.035 Y0.581
G1 F150 X-4.864 Y14.481 E117.54971
G0 F300 X-5.43 Y14.481
G1 F150 X8.828 Y0.222 E117.66982
G0 F300 X8.621 Y-.136
G1 F150 X-5.996 Y14.482 E117.79296
G0 F300 X-6.562 Y14.482
G1 F150 X8.414 Y-.494 E117.91912
G0 F300 X8.207 Y-.853
G1 F150 X-7.128 Y14.482 E118.0483
G0 F300 X-7.694 Y14.482
G1 F150 X8 Y-1.211 E118.1805
G0 F300 X7.793 Y-1.57
G1 F150 X-8.259 Y14.482 E118.31572
G0 F300 X-8.825 Y14.482
G1 F150 X7.585 Y-1.928 E118.45396
G0 F300 X7.379 Y-2.288
G1 F150 X-9.391 Y14.482 E118.59523
G0 F300 X-9.956 Y14.482
G1 F150 X7.172 Y-2.646 E118.73952
G0 F300 X6.965 Y-3.005
G1 F150 X-10.522 Y14.482 E118.88683
G0 F300 X-11.088 Y14.482
G1 F150 X6.757 Y-3.363 E119.03715
G0 F300 X6.55 Y-3.722
G1 F150 X-11.653 Y14.482 E119.1905
G0 F300 X-12.219 Y14.482
G1 F150 X6.344 Y-4.081 E119.34688
G0 F300 X6.136 Y-4.439
G1 F150 X-12.785 Y14.482 E119.50627
G0 F300 X-13.35 Y14.482
G1 F150 X5.929 Y-4.798 E119.66868
G0 F300 X5.722 Y-5.156
G1 F150 X-13.916 Y14.482 E119.83411
G0 F300 X-14.482 Y14.482
G1 F150 X5.515 Y-5.515 E120.00256
G0 F300 X5.308 Y-5.874
G1 F150 X-15.047 Y14.482 E120.17404
G0 F300 X-15.613 Y14.482
G1 F150 X5.101 Y-6.233 E120.34854
G0 F300 X4.894 Y-6.591
G1 F150 X-16.179 Y14.482 E120.52606
G0 F300 X-16.527 Y14.265
G1 F150 X4.687 Y-6.95 E120.70477
G0 F300 X4.48 Y-7.308
G1 F150 X-16.716 Y13.887 E120.88332
G1 X-16.786 Y13.957
G0 F300 X-15.948 Y12.553
G1 F150 X4.273 Y-7.667 E121.05366
G0 F300 X4.066 Y-8.026
G1 F150 X-15.175 Y11.216 E121.21575
G1 X-15.245 Y11.286
G0 F300 X-14.403 Y9.877
G1 F150 X3.859 Y-8.384 E121.36958
G0 F300 X3.652 Y-8.743
G1 F150 X-13.63 Y8.539 E121.51517
G1 X-13.7 Y8.609
G0 F300 X-12.857 Y7.2
G1 F150 X3.445 Y-9.101 E121.65249
G0 F300 X3.237 Y-9.46
G1 F150 X-12.085 Y5.862 E121.78156
G1 X-12.155 Y5.932
G0 F300 X-11.312 Y4.524
G1 F150 X3.031 Y-9.819 E121.90239
G0 F300 X2.824 Y-10.178
G1 F150 X-10.539 Y3.185 E122.01496
G1 X-10.609 Y3.255
G0 F300 X-9.767 Y1.847
G1 F150 X2.617 Y-10.536 E122.11928
G0 F300 X2.409 Y-10.895
G1 F150 X-8.994 Y0.509 E122.21534
G1 X-9.064 Y0.579
G0 F300 X-8.221 Y-.829
G1 F150 X2.202 Y-11.253 E122.30315
G0 F300 X1.996 Y-11.612
G1 F150 X-7.448 Y-2.167 E122.38271
G1 X-7.518 Y-2.097
G0 F300 X-6.676 Y-3.505
G1 F150 X1.788 Y-11.971 E122.45402
G0 F300 X1.581 Y-12.329
G1 F150 X-5.903 Y-4.844 E122.51707
G1 X-5.973 Y-4.774
G0 F300 X-5.13 Y-6.182
G1 F150 X1.374 Y-12.688 E122.57187
G0 F300 X1.167 Y-13.046
G1 F150 X-4.358 Y-7.52 E122.61841
G1 X-4.428 Y-7.45
G0 F300 X-3.585 Y-8.859
G1 F150 X0.96 Y-13.405 E122.6567
G0 F300 X0.753 Y-13.764
G1 F150 X-2.812 Y-10.197 E122.68674
G1 X-2.882 Y-10.127
G0 F300 X-2.04 Y-11.536
G1 F150 X0.546 Y-14.123 E122.70853
G0 F300 X0.337 Y-14.48
G1 F150 X-1.267 Y-12.874 E122.72205
G1 X-1.337 Y-12.804
G0 F300 X-.494 Y-14.212
G1 F150 X-.227 Y-14.48 E122.72431
G0 F300 X-.227 Y-14.462
;MESH:NONMESH
G0 F120 X-.227 Y-14.462 Z0.9
G0 F300 X17.052 Y13.872
G0 X17.377 Y13.865
;TIME_ELAPSED:4932.348204
;LAYER:6
;TYPE:WALL-INNER
;MESH:Tri_v2_small.stl
G1 X0.677 Y-15.061 E122.92326
G1 X-.677 Y-15.061 E122.93133
G1 X-17.377 Y13.865 E123.13029
G1 X-16.779 Y15.062 E123.13826
G1 X16.778 Y15.061 E123.33814
G1 X17.377 Y13.865 E123.34611
G0 X17.831 Y13.851
;TYPE:WALL-OUTER
G1 F150 X0.908 Y-15.461 E123.54772
G1 X-.908 Y-15.461 E123.55854
G1 X-17.831 Y13.851 E123.76015
G1 X-17.026 Y15.462 E123.77088
G1 X17.026 Y15.461 E123.97372
G1 X17.831 Y13.851 E123.98444
G0 F300 X17.731 Y13.678
G0 X16.945 Y13.879
;TYPE:SKIN
G1 F150 X16.544 Y14.68 E123.98978
G1 X-16.544 Y14.682 E124.18687
G1 X-16.945 Y13.879 E124.19222
G1 X-.457 Y-14.681 E124.38865
G1 X0.457 Y-14.681 E124.3941
G1 X16.945 Y13.879 E124.59054
G0 F300 X0.227 Y-14.48
G1 F150 X0.495 Y-14.212 E124.59279
G0 F300 X-.337 Y-14.48
G1 F150 X1.268 Y-12.873 E124.60632
G1 X1.338 Y-12.803
G0 F300 X2.04 Y-11.535
G1 F150 X-.547 Y-14.123 E124.62812
G0 F300 X-.754 Y-13.765
G1 F150 X2.813 Y-10.197 E124.65817
G1 X2.883 Y-10.127
G0 F300 X3.586 Y-8.858
G1 F150 X-.96 Y-13.406 E124.69648
G0 F300 X-1.168 Y-13.047
G1 F150 X4.359 Y-7.52 E124.74304
G1 X4.429 Y-7.45
G0 F300 X5.131 Y-6.182
G1 F150 X-1.375 Y-12.689 E124.79785
G0 F300 X-1.582 Y-12.33
G1 F150 X5.904 Y-4.843 E124.86091
G1 X5.974 Y-4.773
G0 F300 X6.677 Y-3.505
G1 F150 X-1.789 Y-11.972 E124.93224
G0 F300 X-1.996 Y-11.613
G1 F150 X7.449 Y-2.167 E125.0118
G1 X7.519 Y-2.097
G0 F300 X8.222 Y-.828
G1 F150 X-2.203 Y-11.254 E125.09963
G0 F300 X-2.41 Y-10.895
G1 F150 X8.995 Y0.509 E125.1957
G1 X9.065 Y0.579
G0 F300 X9.767 Y1.848
G1 F150 X-2.617 Y-10.537 E125.30003
G0 F300 X-2.824 Y-10.178
G1 F150 X10.54 Y3.186 E125.41261
G1 X10.61 Y3.256
G0 F300 X11.313 Y4.524
G1 F150 X-3.032 Y-9.82 E125.53344
G0 F300 X-3.238 Y-9.461
G1 F150 X12.085 Y5.863 E125.66253
G1 X12.155 Y5.933
G0 F300 X12.858 Y7.201
G1 F150 X-3.445 Y-9.102 E125.79987
G0 F300 X-3.652 Y-8.744
G1 F150 X13.63 Y8.539 E125.94545
G1 X13.7 Y8.609
G0 F300 X14.403 Y9.878
G1 F150 X-3.86 Y-8.385 E126.0993
G0 F300 X-4.067 Y-8.027
G1 F150 X15.176 Y11.216 E126.26141
G1 X15.246 Y11.286
G0 F300 X15.948 Y12.554
G1 F150 X-4.273 Y-7.667 E126.43175
G0 F300 X-4.48 Y-7.309
G1 F150 X16.716 Y13.888 E126.61031
G0 F300 X16.527 Y14.265
G1 F150 X-4.688 Y-6.95 E126.78902
G0 F300 X-4.895 Y-6.592
G1 F150 X16.177 Y14.48 E126.96653
G0 F300 X15.611 Y14.48
G1 F150 X-5.102 Y-6.233 E127.14102
G0 F300 X-5.309 Y-5.875
G1 F150 X15.045 Y14.48 E127.31249
G0 F300 X14.48 Y14.48
G1 F150 X-5.516 Y-5.516 E127.48093
G0 F300 X-5.723 Y-5.157
G1 F150 X13.914 Y14.48 E127.64636
G0 F300 X13.348 Y14.48
G1 F150 X-5.93 Y-4.799 E127.80876
G0 F300 X-6.137 Y-4.44
G1 F150 X12.783 Y14.48 E127.96814
G0 F300 X12.217 Y14.48
G1 F150 X-6.344 Y-4.082 E128.1245
G0 F300 X-6.551 Y-3.722
G1 F150 X11.651 Y14.48 E128.27784
G0 F300 X11.086 Y14.48
G1 F150 X-6.758 Y-3.364 E128.42815
G0 F300 X-6.965 Y-3.005
G1 F150 X10.52 Y14.48 E128.57545
G0 F300 X9.954 Y14.48
G1 F150 X-7.172 Y-2.647 E128.71972
G0 F300 X-7.38 Y-2.288
G1 F150 X9.388 Y14.48 E128.86098
G0 F300 X8.823 Y14.48
G1 F150 X-7.586 Y-1.929 E128.99921
G0 F300 X-7.793 Y-1.571
G1 F150 X8.257 Y14.48 E129.13442
G0 F300 X7.691 Y14.48
G1 F150 X-8 Y-1.212 E129.2666
G0 F300 X-8.208 Y-.854
G1 F150 X7.126 Y14.48 E129.39577
G0 F300 X6.56 Y14.48
G1 F150 X-8.415 Y-.495 E129.52192
G0 F300 X-8.622 Y-.137
G1 F150 X5.994 Y14.48 E129.64505
G0 F300 X5.429 Y14.48
G1 F150 X-8.828 Y0.222 E129.76516
G0 F300 X-9.036 Y0.58
G1 F150 X4.864 Y14.48 E129.88225
G0 F300 X4.298 Y14.48
G1 F150 X-9.243 Y0.939 E129.99632
G0 F300 X-9.45 Y1.297
G1 F150 X3.732 Y14.48 E130.10737
G0 F300 X3.167 Y14.48
G1 F150 X-9.657 Y1.656 E130.2154
G0 F300 X-9.864 Y2.015
G1 F150 X2.601 Y14.48 E130.32041
G0 F300 X2.035 Y14.48
G1 F150 X-10.071 Y2.373 E130.42239
G0 F300 X-10.278 Y2.732
G1 F150 X1.47 Y14.48 E130.52136
G0 F300 X0.904 Y14.48
G1 F150 X-10.485 Y3.09 E130.6173
G0 F300 X-10.692 Y3.449
G1 F150 X0.338 Y14.48 E130.71022
G0 F300 X-.226 Y14.48
G1 F150 X-10.899 Y3.808 E130.80013
G0 F300 X-11.106 Y4.166
G1 F150 X-.792 Y14.48 E130.88701
G0 F300 X-1.358 Y14.48
G1 F150 X-11.313 Y4.525 E130.97088
G0 F300 X-11.52 Y4.883
G1 F150 X-1.924 Y14.48 E131.05172
G0 F300 X-2.489 Y14.48
G1 F150 X-11.728 Y5.242 E131.12954
G0 F300 X-11.935 Y5.6
G1 F150 X-3.055 Y14.48 E131.20435
G0 F300 X-3.621 Y14.48
G1 F150 X-12.141 Y5.96 E131.27612
G0 F300 X-12.348 Y6.318
G1 F150 X-4.186 Y14.48 E131.34488
G0 F300 X-4.752 Y14.48
G1 F150 X-12.556 Y6.677 E131.41061
G0 F300 X-12.763 Y7.035
G1 F150 X-5.318 Y14.48 E131.47333
G0 F300 X-5.883 Y14.481
G1 F150 X-12.97 Y7.394 E131.53303
G0 F300 X-13.176 Y7.753
G1 F150 X-6.448 Y14.481 E131.58971
G0 F300 X-7.014 Y14.481
G1 F150 X-13.384 Y8.111 E131.64337
G0 F300 X-13.591 Y8.47
G1 F150 X-7.58 Y14.481 E131.69401
G0 F300 X-8.145 Y14.481
G1 F150 X-13.798 Y8.828 E131.74163
G0 F300 X-14.005 Y9.187
G1 F150 X-8.711 Y14.481 E131.78622
G0 F300 X-9.277 Y14.481
G1 F150 X-14.212 Y9.546 E131.8278
G0 F300 X-14.419 Y9.905
G1 F150 X-9.842 Y14.481 E131.86635
G0 F300 X-10.408 Y14.481
G1 F150 X-14.626 Y10.263 E131.90188
G0 F300 X-14.833 Y10.622
G1 F150 X-10.974 Y14.481 E131.93439
G0 F300 X-11.539 Y14.481
G1 F150 X-15.04 Y10.98 E131.96388
G0 F300 X-15.248 Y11.339
G1 F150 X-12.105 Y14.481 E131.99035
G0 F300 X-12.671 Y14.481
G1 F150 X-15.454 Y11.698 E132.0138
G0 F300 X-15.661 Y12.056
G1 F150 X-13.237 Y14.481 E132.03422
G0 F300 X-13.802 Y14.481
G1 F150 X-15.868 Y12.415 E132.05163
G0 F300 X-16.076 Y12.773
G1 F150 X-14.368 Y14.481 E132.06601
G0 F300 X-14.934 Y14.481
G1 F150 X-16.283 Y13.132 E132.07738
G0 F300 X-16.489 Y13.491
G1 F150 X-15.499 Y14.481 E132.08572
G0 F300 X-16.065 Y14.481
G1 F150 X-16.696 Y13.85 E132.09103
G1 X-16.766 Y13.78
G0 F300 X-16.67 Y13.836
;MESH:NONMESH
G0 F120 X-16.67 Y13.836 Z1
G0 F300 X17.052 Y13.872
G0 X17.377 Y13.865
;TIME_ELAPSED:5564.360631
;LAYER:7
;TYPE:WALL-INNER
;MESH:Tri_v2_small.stl
G1 X0.677 Y-15.061 E132.28999
G1 X-.677 Y-15.061 E132.29806
G1 X-17.377 Y13.865 E132.49701
G1 X-16.779 Y15.062 E132.50498
G1 X16.778 Y15.061 E132.70487
G1 X17.377 Y13.865 E132.71284
G0 X17.831 Y13.851
;TYPE:WALL-OUTER
G1 F150 X0.908 Y-15.461 E132.91445
G1 X-.908 Y-15.461 E132.92527
G1 X-17.831 Y13.851 E133.12688
G1 X-17.026 Y15.462 E133.13761
G1 X17.026 Y15.461 E133.34044
G1 X17.831 Y13.851 E133.35117
G0 F300 X17.731 Y13.678
G0 X16.945 Y13.879
;TYPE:SKIN
G1 F150 X16.544 Y14.68 E133.3565
G1 X-16.544 Y14.682 E133.5536
G1 X-16.945 Y13.879 E133.55894
G1 X-.457 Y-14.681 E133.75538
G1 X0.457 Y-14.681 E133.76083
G1 X16.945 Y13.879 E133.95726
G0 F300 X16.066 Y14.48
G1 F150 X16.696 Y13.85 E133.96257
G0 F300 X16.489 Y13.492
G1 F150 X15.5 Y14.48 E133.9709
G0 F300 X14.934 Y14.48
G1 F150 X16.282 Y13.133 E133.98225
G0 F300 X16.075 Y12.774
G1 F150 X14.369 Y14.48 E133.99662
G0 F300 X13.803 Y14.48
G1 F150 X15.868 Y12.416 E134.01401
G0 F300 X15.661 Y12.057
G1 F150 X13.237 Y14.48 E134.03443
G0 F300 X12.672 Y14.48
G1 F150 X15.453 Y11.699 E134.05785
G0 F300 X15.247 Y11.339
G1 F150 X12.106 Y14.48 E134.08431
G0 F300 X11.54 Y14.48
G1 F150 X15.04 Y10.981 E134.11379
G0 F300 X14.832 Y10.622
G1 F150 X10.975 Y14.48 E134.14629
G0 F300 X10.409 Y14.48
G1 F150 X14.625 Y10.264 E134.1818
G0 F300 X14.418 Y9.905
G1 F150 X9.843 Y14.48 E134.22034
G0 F300 X9.277 Y14.48
G1 F150 X14.211 Y9.547 E134.2619
G0 F300 X14.004 Y9.188
G1 F150 X8.712 Y14.48 E134.30648
G0 F300 X8.146 Y14.48
G1 F150 X13.797 Y8.829 E134.35409
G0 F300 X13.59 Y8.471
G1 F150 X7.58 Y14.48 E134.40471
G0 F300 X7.015 Y14.48
G1 F150 X13.383 Y8.112 E134.45836
G0 F300 X13.176 Y7.754
G1 F150 X6.449 Y14.48 E134.51502
G0 F300 X5.883 Y14.48
G1 F150 X12.969 Y7.394 E134.57471
G0 F300 X12.762 Y7.036
G1 F150 X5.317 Y14.481 E134.63743
G0 F300 X4.751 Y14.481
G1 F150 X12.555 Y6.677 E134.70317
G0 F300 X12.348 Y6.319
G1 F150 X4.186 Y14.481 E134.77193
G0 F300 X3.62 Y14.481
G1 F150 X12.141 Y5.96 E134.84371
G0 F300 X11.934 Y5.601
G1 F150 X3.054 Y14.481 E134.91851
G0 F300 X2.489 Y14.481
G1 F150 X11.727 Y5.243 E134.99634
G0 F300 X11.52 Y4.884
G1 F150 X1.923 Y14.481 E135.07718
G0 F300 X1.357 Y14.481
G1 F150 X11.313 Y4.526 E135.16105
G0 F300 X11.105 Y4.167
G1 F150 X0.791 Y14.481 E135.24793
G0 F300 X0.226 Y14.481
G1 F150 X10.898 Y3.809 E135.33783
G0 F300 X10.692 Y3.449
G1 F150 X-.339 Y14.481 E135.43076
G0 F300 X-.905 Y14.481
G1 F150 X10.484 Y3.091 E135.52671
G0 F300 X10.277 Y2.732
G1 F150 X-1.47 Y14.481 E135.62567
G0 F300 X-2.036 Y14.481
G1 F150 X10.07 Y2.374 E135.72766
G0 F300 X9.863 Y2.015
G1 F150 X-2.602 Y14.481 E135.83267
G0 F300 X-3.167 Y14.481
G1 F150 X9.656 Y1.656 E135.9407
G0 F300 X9.449 Y1.298
G1 F150 X-3.733 Y14.481 E136.05175
G0 F300 X-4.299 Y14.481
G1 F150 X9.242 Y0.939 E136.16582
G0 F300 X9.035 Y0.581
G1 F150 X-4.864 Y14.481 E136.28291
G0 F300 X-5.43 Y14.481
G1 F150 X8.828 Y0.222 E136.40302
G0 F300 X8.621 Y-.136
G1 F150 X-5.996 Y14.482 E136.52616
G0 F300 X-6.562 Y14.482
G1 F150 X8.414 Y-.494 E136.65232
G0 F300 X8.207 Y-.853
G1 F150 X-7.128 Y14.482 E136.7815
G0 F300 X-7.694 Y14.482
G1 F150 X8 Y-1.211 E136.9137
G0 F300 X7.793 Y-1.57
G1 F150 X-8.259 Y14.482 E137.04893
G0 F300 X-8.825 Y14.482
G1 F150 X7.585 Y-1.928 E137.18716
G0 F300 X7.379 Y-2.288
G1 F150 X-9.391 Y14.482 E137.32843
G0 F300 X-9.956 Y14.482
G1 F150 X7.172 Y-2.646 E137.47272
G0 F300 X6.965 Y-3.005
G1 F150 X-10.522 Y14.482 E137.62003
G0 F300 X-11.088 Y14.482
G1 F150 X6.757 Y-3.363 E137.77036
G0 F300 X6.55 Y-3.722
G1 F150 X-11.653 Y14.482 E137.9237
G0 F300 X-12.219 Y14.482
G1 F150 X6.344 Y-4.081 E138.08008
G0 F300 X6.136 Y-4.439
G1 F150 X-12.785 Y14.482 E138.23947
G0 F300 X-13.35 Y14.482
G1 F150 X5.929 Y-4.798 E138.40188
G0 F300 X5.722 Y-5.156
G1 F150 X-13.916 Y14.482 E138.56731
G0 F300 X-14.482 Y14.482
G1 F150 X5.515 Y-5.515 E138.73577
G0 F300 X5.308 Y-5.874
G1 F150 X-15.047 Y14.482 E138.90724
G0 F300 X-15.613 Y14.482
G1 F150 X5.101 Y-6.233 E139.08174
G0 F300 X4.894 Y-6.591
G1 F150 X-16.179 Y14.482 E139.25926
G0 F300 X-16.527 Y14.265
G1 F150 X4.687 Y-6.95 E139.43797
G0 F300 X4.48 Y-7.308
G1 F150 X-16.716 Y13.887 E139.61652
G1 X-16.786 Y13.957
G0 F300 X-15.948 Y12.553
G1 F150 X4.273 Y-7.667 E139.78686
G0 F300 X4.066 Y-8.026
G1 F150 X-15.175 Y11.216 E139.94895
G1 X-15.245 Y11.286
G0 F300 X-14.403 Y9.877
G1 F150 X3.859 Y-8.384 E140.10279
G0 F300 X3.652 Y-8.743
G1 F150 X-13.63 Y8.539 E140.24837
G1 X-13.7 Y8.609
G0 F300 X-12.857 Y7.2
G1 F150 X3.445 Y-9.101 E140.38569
G0 F300 X3.237 Y-9.46
G1 F150 X-12.085 Y5.862 E140.51477
G1 X-12.155 Y5.932
G0 F300 X-11.312 Y4.524
G1 F150 X3.031 Y-9.819 E140.63559
G0 F300 X2.824 Y-10.178
G1 F150 X-10.539 Y3.185 E140.74816
G1 X-10.609 Y3.255
G0 F300 X-9.767 Y1.847
G1 F150 X2.617 Y-10.536 E140.85248
G0 F300 X2.409 Y-10.895
G1 F150 X-8.994 Y0.509 E140.94854
G1 X-9.064 Y0.579
G0 F300 X-8.221 Y-.829
G1 F150 X2.202 Y-11.253 E141.03635
G0 F300 X1.996 Y-11.612
G1 F150 X-7.448 Y-2.167 E141.11591
G1 X-7.518 Y-2.097
G0 F300 X-6.676 Y-3.505
G1 F150 X1.788 Y-11.971 E141.18722
G0 F300 X1.581 Y-12.329
G1 F150 X-5.903 Y-4.844 E141.25027
G1 X-5.973 Y-4.774
G0 F300 X-5.13 Y-6.182
G1 F150 X1.374 Y-12.688 E141.30507
G0 F300 X1.167 Y-13.046
G1 F150 X-4.358 Y-7.52 E141.35162
G1 X-4.428 Y-7.45
G0 F300 X-3.585 Y-8.859
G1 F150 X0.96 Y-13.405 E141.38991
G0 F300 X0.753 Y-13.764
G1 F150 X-2.812 Y-10.197 E141.41995
G1 X-2.882 Y-10.127
G0 F300 X-2.04 Y-11.536
G1 F150 X0.546 Y-14.123 E141.44174
G0 F300 X0.337 Y-14.48
G1 F150 X-1.267 Y-12.874 E141.45526
G1 X-1.337 Y-12.804
G0 F300 X-.494 Y-14.212
G1 F150 X-.227 Y-14.48 E141.45751
G0 F300 X-.227 Y-14.462
;MESH:NONMESH
G0 F120 X-.227 Y-14.462 Z1.1
G0 F300 X-6.162 Y-4.964
G0 X-6.279 Y-5.033
;TIME_ELAPSED:6185.928102
;LAYER:8
;TYPE:FILL
;MESH:Tri_v2_small.stl
G1 X1.682 Y-12.996 E141.52458
G1 X1.752 Y-13.066
G0 X1.551 Y-12.95
G0 X-1.564 Y-12.927
G0 X-1.683 Y-12.997
G1 X6.28 Y-5.033 E141.59167
G1 X6.35 Y-4.963
G0 X6.209 Y-4.882
G0 X5.705 Y-5.755
G0 X5.823 Y-5.823
G1 X-14.901 Y14.901 E141.76625
G1 X-14.971 Y14.971
G0 X-14.971 Y14.762
G0 X-13.382 Y14.762
G0 X-13.382 Y14.901
G1 X-16.176 Y12.107 E141.78978
G1 X-16.246 Y12.037
G0 X-16.046 Y12.154
G0 X-13.988 Y8.59
G0 X-14.106 Y8.521
G1 X-7.725 Y14.901 E141.84353
G1 X-7.655 Y14.971
G0 X-7.655 Y14.762
G0 X-9.244 Y14.762
G0 X-9.244 Y14.901
G1 X7.894 Y-2.237 E141.9879
G1 X7.964 Y-2.307
G0 X7.763 Y-2.191
G0 X9.846 Y1.417
G0 X9.964 Y1.349
G1 X-3.587 Y14.901 E142.10206
G1 X-3.657 Y14.971
G0 X-3.657 Y14.762
G0 X-2.068 Y14.762
G0 X-2.068 Y14.901
G1 X-12.035 Y4.934 E142.18602
G1 X-12.105 Y4.864
G0 X-11.904 Y4.981
G0 X-13.889 Y8.418
G0 X-14.006 Y8.349
G1 X3.753 Y-9.41 E142.33563
G1 X3.823 Y-9.48
G0 X3.621 Y-9.364
G0 X-3.635 Y-9.34
G0 X-3.754 Y-9.41
G1 X14.007 Y8.35 E142.48524
G1 X14.105 Y8.522
G1 X7.725 Y14.901 E142.53898
G1 X7.655 Y14.971
G0 X7.655 Y14.762
G0 X9.244 Y14.762
G0 X9.244 Y14.901
G1 X-7.894 Y-2.237 E142.68335
G1 X-7.964 Y-2.307
G0 X-7.764 Y-2.19
G0 X-9.847 Y1.417
G0 X-9.965 Y1.348
G1 X3.587 Y14.901 E142.79752
G1 X3.657 Y14.971
G0 X3.657 Y14.762
G0 X2.068 Y14.762
G0 X2.068 Y14.901
G1 X12.034 Y4.935 E142.88147
G1 X12.104 Y4.865
G0 X11.903 Y4.98
G0 X16.058 Y12.175
G0 X16.175 Y12.108
G1 X13.382 Y14.901 E142.905
G1 X13.312 Y14.971
G0 X13.312 Y14.762
G0 X14.901 Y14.762
G0 X14.901 Y14.901
G1 X-5.824 Y-5.824 E143.07959
G1 X-5.894 Y-5.894
G0 X-5.693 Y-5.777
G0 X17.052 Y13.872
G0 X17.377 Y13.865
;TYPE:WALL-INNER
G1 X0.677 Y-15.061 E143.27854
G1 X-.677 Y-15.061 E143.28661
G1 X-17.377 Y13.865 E143.48557
G1 X-16.779 Y15.062 E143.49354
G1 X16.778 Y15.061 E143.69343
G1 X17.377 Y13.865 E143.70139
G0 X17.831 Y13.851
;TYPE:WALL-OUTER
G1 F150 X0.908 Y-15.461 E143.90301
G1 X-.908 Y-15.461 E143.91382
G1 X-17.831 Y13.851 E144.11544
G1 X-17.026 Y15.462 E144.12616
G1 X17.026 Y15.461 E144.329
G1 X17.831 Y13.851 E144.33972
G0 F300 X17.731 Y13.678
G0 X16.71 Y13.905
;MESH:NONMESH
G0 F120 X16.71 Y13.905 Z1.2
G0 F300 X-6.162 Y-4.964
G0 X-6.279 Y-5.033
;TIME_ELAPSED:6327.071568
;LAYER:9
;TYPE:FILL
;MESH:Tri_v2_small.stl
G1 X1.682 Y-12.996 E144.40679
G1 X1.752 Y-13.066
G0 X1.551 Y-12.95
G0 X-1.564 Y-12.927
G0 X-1.683 Y-12.997
G1 X6.28 Y-5.033 E144.47388
G1 X6.35 Y-4.963
G0 X6.209 Y-4.882
G0 X5.705 Y-5.755
G0 X5.823 Y-5.823
G1 X-14.901 Y14.901 E144.64846
G1 X-14.971 Y14.971
G0 X-14.971 Y14.762
G0 X-13.382 Y14.762
G0 X-13.382 Y14.901
G1 X-16.176 Y12.107 E144.67199
G1 X-16.246 Y12.037
G0 X-16.046 Y12.154
G0 X-13.988 Y8.59
G0 X-14.106 Y8.521
G1 X-7.725 Y14.901 E144.72574
G1 X-7.655 Y14.971
G0 X-7.655 Y14.762
G0 X-9.244 Y14.762
G0 X-9.244 Y14.901
G1 X7.894 Y-2.237 E144.87011
G1 X7.964 Y-2.307
G0 X7.763 Y-2.191
G0 X9.846 Y1.417
G0 X9.964 Y1.349
G1 X-3.587 Y14.901 E144.98427
G1 X-3.657 Y14.971
G0 X-3.657 Y14.762
G0 X-2.068 Y14.762
G0 X-2.068 Y14.901
G1 X-12.035 Y4.934 E145.06823
G1 X-12.105 Y4.864
G0 X-11.904 Y4.981
G0 X-13.889 Y8.418
G0 X-14.006 Y8.349
G1 X3.753 Y-9.41 E145.21784
G1 X3.823 Y-9.48
G0 X3.621 Y-9.364
G0 X-3.635 Y-9.34
G0 X-3.754 Y-9.41
G1 X14.007 Y8.35 E145.36745
G1 X14.105 Y8.522
G1 X7.725 Y14.901 E145.42119
G1 X7.655 Y14.971
G0 X7.655 Y14.762
G0 X9.244 Y14.762
G0 X9.244 Y14.901
G1 X-7.894 Y-2.237 E145.56556
G1 X-7.964 Y-2.307
G0 X-7.764 Y-2.19
G0 X-9.847 Y1.417
G0 X-9.965 Y1.348
G1 X3.587 Y14.901 E145.67973
G1 X3.657 Y14.971
G0 X3.657 Y14.762
G0 X2.068 Y14.762
G0 X2.068 Y14.901
G1 X12.034 Y4.935 E145.76368
G1 X12.104 Y4.865
G0 X11.903 Y4.98
G0 X16.058 Y12.175
G0 X16.175 Y12.108
G1 X13.382 Y14.901 E145.78721
G1 X13.312 Y14.971
G0 X13.312 Y14.762
G0 X14.901 Y14.762
G0 X14.901 Y14.901
G1 X-5.824 Y-5.824 E145.9618
G1 X-5.894 Y-5.894
G0 X-5.693 Y-5.777
G0 X17.052 Y13.872
G0 X17.377 Y13.865
;TYPE:WALL-INNER
G1 X0.677 Y-15.061 E146.16076
G1 X-.677 Y-15.061 E146.16882
G1 X-17.377 Y13.865 E146.36778
G1 X-16.779 Y15.062 E146.37575
G1 X16.778 Y15.061 E146.57564
G1 X17.377 Y13.865 E146.5836
G0 X17.831 Y13.851
;TYPE:WALL-OUTER
G1 F150 X0.908 Y-15.461 E146.78522
G1 X-.908 Y-15.461 E146.79603
G1 X-17.831 Y13.851 E146.99765
G1 X-17.026 Y15.462 E147.00837
G1 X17.026 Y15.461 E147.21121
G1 X17.831 Y13.851 E147.22193
G0 F300 X17.731 Y13.678
G0 X16.71 Y13.905
;MESH:NONMESH
G0 F120 X16.71 Y13.905 Z1.3
G0 F300 X-6.162 Y-4.964
G0 X-6.279 Y-5.033
;TIME_ELAPSED:6468.215035
;LAYER:10
;TYPE:FILL
;MESH:Tri_v2_small.stl
G1 X1.682 Y-12.996 E147.289
G1 X1.752 Y-13.066
G0 X1.551 Y-12.95
G0 X-1.564 Y-12.927
G0 X-1.683 Y-12.997
G1 X6.28 Y-5.033 E147.35609
G1 X6.35 Y-4.963
G0 X6.209 Y-4.882
G0 X5.705 Y-5.755
G0 X5.823 Y-5.823
G1 X-14.901 Y14.901 E147.53067
G1 X-14.971 Y14.971
G0 X-14.971 Y14.762
G0 X-13.382 Y14.762
G0 X-13.382 Y14.901
G1 X-16.176 Y12.107 E147.55421
G1 X-16.246 Y12.037
G0 X-16.046 Y12.154
G0 X-13.988 Y8.59
G0 X-14.106 Y8.521
G1 X-7.725 Y14.901 E147.60795
G1 X-7.655 Y14.971
G0 X-7.655 Y14.762
G0 X-9.244 Y14.762
G0 X-9.244 Y14.901
G1 X7.894 Y-2.237 E147.75233
G1 X7.964 Y-2.307
G0 X7.763 Y-2.191
G0 X9.846 Y1.417
G0 X9.964 Y1.349
G1 X-3.587 Y14.901 E147.86648
G1 X-3.657 Y14.971
G0 X-3.657 Y14.762
G0 X-2.068 Y14.762
G0 X-2.068 Y14.901
G1 X-12.035 Y4.934 E147.95045
G1 X-12.105 Y4.864
G0 X-11.904 Y4.981
G0 X-13.889 Y8.418
G0 X-14.006 Y8.349
G1 X3.753 Y-9.41 E148.10005
G1 X3.823 Y-9.48
G0 X3.621 Y-9.364
G0 X-3.635 Y-9.34
G0 X-3.754 Y-9.41
G1 X14.007 Y8.35 E148.24966
G1 X14.105 Y8.522
G1 X7.725 Y14.901 E148.3034
G1 X7.655 Y14.971
G0 X7.655 Y14.762
G0 X9.244 Y14.762
G0 X9.244 Y14.901
G1 X-7.894 Y-2.237 E148.44777
G1 X-7.964 Y-2.307
G0 X-7.764 Y-2.19
G0 X-9.847 Y1.417
G0 X-9.965 Y1.348
G1 X3.587 Y14.901 E148.56194
G1 X3.657 Y14.971
G0 X3.657 Y14.762
G0 X2.068 Y14.762
G0 X2.068 Y14.901
G1 X12.034 Y4.935 E148.64589
G1 X12.104 Y4.865
G0 X11.903 Y4.98
G0 X16.058 Y12.175
G0 X16.175 Y12.108
G1 X13.382 Y14.901 E148.66942
G1 X13.312 Y14.971
G0 X13.312 Y14.762
G0 X14.901 Y14.762
G0 X14.901 Y14.901
G1 X-5.824 Y-5.824 E148.84401
G1 X-5.894 Y-5.894
G0 X-5.693 Y-5.777
G0 X17.052 Y13.872
G0 X17.377 Y13.865
;TYPE:WALL-INNER
G1 X0.677 Y-15.061 E149.04297
G1 X-.677 Y-15.061 E149.05103
G1 X-17.377 Y13.865 E149.24999
G1 X-16.779 Y15.062 E149.25796
G1 X16.778 Y15.061 E149.45785
G1 X17.377 Y13.865 E149.46582
G0 X17.831 Y13.851
;TYPE:WALL-OUTER
G1 F150 X0.908 Y-15.461 E149.66743
G1 X-.908 Y-15.461 E149.67824
G1 X-17.831 Y13.851 E149.87986
G1 X-17.026 Y15.462 E149.89058
G1 X17.026 Y15.461 E150.09342
G1 X17.831 Y13.851 E150.10414
G0 F300 X17.731 Y13.678
G0 X16.71 Y13.905
;MESH:NONMESH
G0 F120 X16.71 Y13.905 Z1.4
G0 F300 X-6.162 Y-4.964
G0 X-6.279 Y-5.033
;TIME_ELAPSED:6609.358502
;LAYER:11
;TYPE:FILL
;MESH:Tri_v2_small.stl
G1 X1.682 Y-12.996 E150.17122
G1 X1.752 Y-13.066
G0 X1.551 Y-12.95
G0 X-1.564 Y-12.927
G0 X-1.683 Y-12.997
G1 X6.28 Y-5.033 E150.2383
G1 X6.35 Y-4.963
G0 X6.209 Y-4.882
G0 X5.705 Y-5.755
G0 X5.823 Y-5.823
G1 X-14.901 Y14.901 E150.41288
G1 X-14.971 Y14.971
G0 X-14.971 Y14.762
G0 X-13.382 Y14.762
G0 X-13.382 Y14.901
G1 X-16.176 Y12.107 E150.43642
G1 X-16.246 Y12.037
G0 X-16.046 Y12.154
G0 X-13.988 Y8.59
G0 X-14.106 Y8.521
G1 X-7.725 Y14.901 E150.49017
G1 X-7.655 Y14.971
G0 X-7.655 Y14.762
G0 X-9.244 Y14.762
G0 X-9.244 Y14.901
G1 X7.894 Y-2.237 E150.63454
G1 X7.964 Y-2.307
G0 X7.763 Y-2.191
G0 X9.846 Y1.417
G0 X9.964 Y1.349
G1 X-3.587 Y14.901 E150.74869
G1 X-3.657 Y14.971
G0 X-3.657 Y14.762
G0 X-2.068 Y14.762
G0 X-2.068 Y14.901
G1 X-12.035 Y4.934 E150.83266
G1 X-12.105 Y4.864
G0 X-11.904 Y4.981
G0 X-13.889 Y8.418
G0 X-14.006 Y8.349
G1 X3.753 Y-9.41 E150.98226
G1 X3.823 Y-9.48
G0 X3.621 Y-9.364
G0 X-3.635 Y-9.34
G0 X-3.754 Y-9.41
G1 X14.007 Y8.35 E151.13187
G1 X14.105 Y8.522
G1 X7.725 Y14.901 E151.18561
G1 X7.655 Y14.971
G0 X7.655 Y14.762
G0 X9.244 Y14.762
G0 X9.244 Y14.901
G1 X-7.894 Y-2.237 E151.32998
G1 X-7.964 Y-2.307
G0 X-7.764 Y-2.19
G0 X-9.847 Y1.417
G0 X-9.965 Y1.348
G1 X3.587 Y14.901 E151.44415
G1 X3.657 Y14.971
G0 X3.657 Y14.762
G0 X2.068 Y14.762
G0 X2.068 Y14.901
G1 X12.034 Y4.935 E151.52811
G1 X12.104 Y4.865
G0 X11.903 Y4.98
G0 X16.058 Y12.175
G0 X16.175 Y12.108
G1 X13.382 Y14.901 E151.55163
G1 X13.312 Y14.971
G0 X13.312 Y14.762
G0 X14.901 Y14.762
G0 X14.901 Y14.901
G1 X-5.824 Y-5.824 E151.72622
G1 X-5.894 Y-5.894
G0 X-5.693 Y-5.777
G0 X17.052 Y13.872
G0 X17.377 Y13.865
;TYPE:WALL-INNER
G1 X0.677 Y-15.061 E151.92518
G1 X-.677 Y-15.061 E151.93324
G1 X-17.377 Y13.865 E152.1322
G1 X-16.779 Y15.062 E152.14017
G1 X16.778 Y15.061 E152.34006
G1 X17.377 Y13.865 E152.34803
G0 X17.831 Y13.851
;TYPE:WALL-OUTER
G1 F150 X0.908 Y-15.461 E152.54964
G1 X-.908 Y-15.461 E152.56046
G1 X-17.831 Y13.851 E152.76207
G1 X-17.026 Y15.462 E152.7728
G1 X17.026 Y15.461 E152.97563
G1 X17.831 Y13.851 E152.98635
G0 F300 X17.731 Y13.678
G0 X16.71 Y13.905
;MESH:NONMESH
G0 F120 X16.71 Y13.905 Z1.5
G0 F300 X-6.162 Y-4.964
G0 X-6.279 Y-5.033
;TIME_ELAPSED:6750.501969
;LAYER:12
;TYPE:FILL
;MESH:Tri_v2_small.stl
G1 X1.682 Y-12.996 E153.05343
G1 X1.752 Y-13.066
G0 X1.551 Y-12.95
G0 X-1.564 Y-12.927
G0 X-1.683 Y-12.997
G1 X6.28 Y-5.033 E153.12051
G1 X6.35 Y-4.963
G0 X6.209 Y-4.882
G0 X5.705 Y-5.755
G0 X5.823 Y-5.823
G1 X-14.901 Y14.901 E153.29509
G1 X-14.971 Y14.971
G0 X-14.971 Y14.762
G0 X-13.382 Y14.762
G0 X-13.382 Y14.901
G1 X-16.176 Y12.107 E153.31863
G1 X-16.246 Y12.037
G0 X-16.046 Y12.154
G0 X-13.988 Y8.59
G0 X-14.106 Y8.521
G1 X-7.725 Y14.901 E153.37238
G1 X-7.655 Y14.971
G0 X-7.655 Y14.762
G0 X-9.244 Y14.762
G0 X-9.244 Y14.901
G1 X7.894 Y-2.237 E153.51675
G1 X7.964 Y-2.307
G0 X7.763 Y-2.191
G0 X9.846 Y1.417
G0 X9.964 Y1.349
G1 X-3.587 Y14.901 E153.63091
G1 X-3.657 Y14.971
G0 X-3.657 Y14.762
G0 X-2.068 Y14.762
G0 X-2.068 Y14.901
G1 X-12.035 Y4.934 E153.71487
G1 X-12.105 Y4.864
G0 X-11.904 Y4.981
G0 X-13.889 Y8.418
G0 X-14.006 Y8.349
G1 X3.753 Y-9.41 E153.86447
G1 X3.823 Y-9.48
G0 X3.621 Y-9.364
G0 X-3.635 Y-9.34
G0 X-3.754 Y-9.41
G1 X14.007 Y8.35 E154.01408
G1 X14.105 Y8.522
G1 X7.725 Y14.901 E154.06783
G1 X7.655 Y14.971
G0 X7.655 Y14.762
G0 X9.244 Y14.762
G0 X9.244 Y14.901
G1 X-7.894 Y-2.237 E154.2122
G1 X-7.964 Y-2.307
G0 X-7.764 Y-2.19
G0 X-9.847 Y1.417
G0 X-9.965 Y1.348
G1 X3.587 Y14.901 E154.32636
G1 X3.657 Y14.971
G0 X3.657 Y14.762
G0 X2.068 Y14.762
G0 X2.068 Y14.901
G1 X12.034 Y4.935 E154.41032
G1 X12.104 Y4.865
G0 X11.903 Y4.98
G0 X16.058 Y12.175
G0 X16.175 Y12.108
G1 X13.382 Y14.901 E154.43384
G1 X13.312 Y14.971
G0 X13.312 Y14.762
G0 X14.901 Y14.762
G0 X14.901 Y14.901
G1 X-5.824 Y-5.824 E154.60843
G1 X-5.894 Y-5.894
G0 X-5.693 Y-5.777
G0 X17.052 Y13.872
G0 X17.377 Y13.865
;TYPE:WALL-INNER
G1 X0.677 Y-15.061 E154.80739
G1 X-.677 Y-15.061 E154.81545
G1 X-17.377 Y13.865 E155.01441
G1 X-16.779 Y15.062 E155.02238
G1 X16.778 Y15.061 E155.22227
G1 X17.377 Y13.865 E155.23024
G0 X17.831 Y13.851
;TYPE:WALL-OUTER
G1 F150 X0.908 Y-15.461 E155.43185
G1 X-.908 Y-15.461 E155.44267
G1 X-17.831 Y13.851 E155.64428
G1 X-17.026 Y15.462 E155.65501
G1 X17.026 Y15.461 E155.85784
G1 X17.831 Y13.851 E155.86857
G0 F300 X17.731 Y13.678
G0 X16.71 Y13.905
;MESH:NONMESH
G0 F120 X16.71 Y13.905 Z1.6
G0 F300 X-6.162 Y-4.964
G0 X-6.279 Y-5.033
;TIME_ELAPSED:6891.645435
;LAYER:13
;TYPE:FILL
;MESH:Tri_v2_small.stl
G1 X1.682 Y-12.996 E155.93564
G1 X1.752 Y-13.066
G0 X1.551 Y-12.95
G0 X-1.564 Y-12.927
G0 X-1.683 Y-12.997
G1 X6.28 Y-5.033 E156.00272
G1 X6.35 Y-4.963
G0 X6.209 Y-4.882
G0 X5.705 Y-5.755
G0 X5.823 Y-5.823
G1 X-14.901 Y14.901 E156.1773
G1 X-14.971 Y14.971
G0 X-14.971 Y14.762
G0 X-13.382 Y14.762
G0 X-13.382 Y14.901
G1 X-16.176 Y12.107 E156.20084
G1 X-16.246 Y12.037
G0 X-16.046 Y12.154
G0 X-13.988 Y8.59
G0 X-14.106 Y8.521
G1 X-7.725 Y14.901 E156.25459
G1 X-7.655 Y14.971
G0 X-7.655 Y14.762
G0 X-9.244 Y14.762
G0 X-9.244 Y14.901
G1 X7.894 Y-2.237 E156.39896
G1 X7.964 Y-2.307
G0 X7.763 Y-2.191
G0 X9.846 Y1.417
G0 X9.964 Y1.349
G1 X-3.587 Y14.901 E156.51312
G1 X-3.657 Y14.971
G0 X-3.657 Y14.762
G0 X-2.068 Y14.762
G0 X-2.068 Y14.901
G1 X-12.035 Y4.934 E156.59708
G1 X-12.105 Y4.864
G0 X-11.904 Y4.981
G0 X-13.889 Y8.418
G0 X-14.006 Y8.349
G1 X3.753 Y-9.41 E156.74668
G1 X3.823 Y-9.48
G0 X3.621 Y-9.364
G0 X-3.635 Y-9.34
G0 X-3.754 Y-9.41
G1 X14.007 Y8.35 E156.8963
G1 X14.105 Y8.522
G1 X7.725 Y14.901 E156.95004
G1 X7.655 Y14.971
G0 X7.655 Y14.762
G0 X9.244 Y14.762
G0 X9.244 Y14.901
G1 X-7.894 Y-2.237 E157.09441
G1 X-7.964 Y-2.307
G0 X-7.764 Y-2.19
G0 X-9.847 Y1.417
G0 X-9.965 Y1.348
G1 X3.587 Y14.901 E157.20857
G1 X3.657 Y14.971
G0 X3.657 Y14.762
G0 X2.068 Y14.762
G0 X2.068 Y14.901
G1 X12.034 Y4.935 E157.29253
G1 X12.104 Y4.865
G0 X11.903 Y4.98
G0 X16.058 Y12.175
G0 X16.175 Y12.108
G1 X13.382 Y14.901 E157.31606
G1 X13.312 Y14.971
G0 X13.312 Y14.762
G0 X14.901 Y14.762
G0 X14.901 Y14.901
G1 X-5.824 Y-5.824 E157.49064
G1 X-5.894 Y-5.894
G0 X-5.693 Y-5.777
G0 X17.052 Y13.872
G0 X17.377 Y13.865
;TYPE:WALL-INNER
G1 X0.677 Y-15.061 E157.6896
G1 X-.677 Y-15.061 E157.69767
G1 X-17.377 Y13.865 E157.89662
G1 X-16.779 Y15.062 E157.90459
G1 X16.778 Y15.061 E158.10448
G1 X17.377 Y13.865 E158.11245
G0 X17.831 Y13.851
;TYPE:WALL-OUTER
G1 F150 X0.908 Y-15.461 E158.31406
G1 X-.908 Y-15.461 E158.32488
G1 X-17.831 Y13.851 E158.52649
G1 X-17.026 Y15.462 E158.53722
G1 X17.026 Y15.461 E158.74005
G1 X17.831 Y13.851 E158.75078
G0 F300 X17.731 Y13.678
G0 X16.71 Y13.905
;MESH:NONMESH
G0 F120 X16.71 Y13.905 Z1.7
G0 F300 X-6.162 Y-4.964
G0 X-6.279 Y-5.033
;TIME_ELAPSED:7032.788902
;LAYER:14
;TYPE:FILL
;MESH:Tri_v2_small.stl
G1 X1.682 Y-12.996 E158.81785
G1 X1.752 Y-13.066
G0 X1.551 Y-12.95
G0 X-1.564 Y-12.927
G0 X-1.683 Y-12.997
G1 X6.28 Y-5.033 E158.88493
G1 X6.35 Y-4.963
G0 X6.209 Y-4.882
G0 X5.705 Y-5.755
G0 X5.823 Y-5.823
G1 X-14.901 Y14.901 E159.05951
G1 X-14.971 Y14.971
G0 X-14.971 Y14.762
G0 X-13.382 Y14.762
G0 X-13.382 Y14.901
G1 X-16.176 Y12.107 E159.08305
G1 X-16.246 Y12.037
G0 X-16.046 Y12.154
G0 X-13.988 Y8.59
G0 X-14.106 Y8.521
G1 X-7.725 Y14.901 E159.1368
G1 X-7.655 Y14.971
G0 X-7.655 Y14.762
G0 X-9.244 Y14.762
G0 X-9.244 Y14.901
G1 X7.894 Y-2.237 E159.28117
G1 X7.964 Y-2.307
G0 X7.763 Y-2.191
G0 X9.846 Y1.417
G0 X9.964 Y1.349
G1 X-3.587 Y14.901 E159.39533
G1 X-3.657 Y14.971
G0 X-3.657 Y14.762
G0 X-2.068 Y14.762
G0 X-2.068 Y14.901
G1 X-12.035 Y4.934 E159.47929
G1 X-12.105 Y4.864
G0 X-11.904 Y4.981
G0 X-13.889 Y8.418
G0 X-14.006 Y8.349
G1 X3.753 Y-9.41 E159.62889
G1 X3.823 Y-9.48
G0 X3.621 Y-9.364
G0 X-3.635 Y-9.34
G0 X-3.754 Y-9.41
G1 X14.007 Y8.35 E159.77851
G1 X14.105 Y8.522
G1 X7.725 Y14.901 E159.83225
G1 X7.655 Y14.971
G0 X7.655 Y14.762
G0 X9.244 Y14.762
G0 X9.244 Y14.901
G1 X-7.894 Y-2.237 E159.97662
G1 X-7.964 Y-2.307
G0 X-7.764 Y-2.19
G0 X-9.847 Y1.417
G0 X-9.965 Y1.348
G1 X3.587 Y14.901 E160.09078
G1 X3.657 Y14.971
G0 X3.657 Y14.762
G0 X2.068 Y14.762
G0 X2.068 Y14.901
G1 X12.034 Y4.935 E160.17474
G1 X12.104 Y4.865
G0 X11.903 Y4.98
G0 X16.058 Y12.175
G0 X16.175 Y12.108
G1 X13.382 Y14.901 E160.19827
G1 X13.312 Y14.971
G0 X13.312 Y14.762
G0 X14.901 Y14.762
G0 X14.901 Y14.901
G1 X-5.824 Y-5.824 E160.37285
G1 X-5.894 Y-5.894
G0 X-5.693 Y-5.777
G0 X17.052 Y13.872
G0 X17.377 Y13.865
;TYPE:WALL-INNER
G1 X0.677 Y-15.061 E160.57181
G1 X-.677 Y-15.061 E160.57988
G1 X-17.377 Y13.865 E160.77883
G1 X-16.779 Y15.062 E160.7868
G1 X16.778 Y15.061 E160.98669
G1 X17.377 Y13.865 E160.99466
G0 X17.831 Y13.851
;TYPE:WALL-OUTER
G1 F150 X0.908 Y-15.461 E161.19627
G1 X-.908 Y-15.461 E161.20709
G1 X-17.831 Y13.851 E161.4087
G1 X-17.026 Y15.462 E161.41943
G1 X17.026 Y15.461 E161.62227
G1 X17.831 Y13.851 E161.63299
G0 F300 X17.731 Y13.678
G0 X16.71 Y13.905
;MESH:NONMESH
G0 F120 X16.71 Y13.905 Z1.8
G0 F300 X-6.162 Y-4.964
G0 X-6.279 Y-5.033
;TIME_ELAPSED:7173.932369
;LAYER:15
;TYPE:FILL
;MESH:Tri_v2_small.stl
G1 X1.682 Y-12.996 E161.70006
G1 X1.752 Y-13.066
G0 X1.551 Y-12.95
G0 X-1.564 Y-12.927
G0 X-1.683 Y-12.997
G1 X6.28 Y-5.033 E161.76714
G1 X6.35 Y-4.963
G0 X6.209 Y-4.882
G0 X5.705 Y-5.755
G0 X5.823 Y-5.823
G1 X-14.901 Y14.901 E161.94172
G1 X-14.971 Y14.971
G0 X-14.971 Y14.762
G0 X-13.382 Y14.762
G0 X-13.382 Y14.901
G1 X-16.176 Y12.107 E161.96526
G1 X-16.246 Y12.037
G0 X-16.046 Y12.154
G0 X-13.988 Y8.59
G0 X-14.106 Y8.521
G1 X-7.725 Y14.901 E162.01901
G1 X-7.655 Y14.971
G0 X-7.655 Y14.762
G0 X-9.244 Y14.762
G0 X-9.244 Y14.901
G1 X7.894 Y-2.237 E162.16338
G1 X7.964 Y-2.307
G0 X7.763 Y-2.191
G0 X9.846 Y1.417
G0 X9.964 Y1.349
G1 X-3.587 Y14.901 E162.27754
G1 X-3.657 Y14.971
G0 X-3.657 Y14.762
G0 X-2.068 Y14.762
G0 X-2.068 Y14.901
G1 X-12.035 Y4.934 E162.3615
G1 X-12.105 Y4.864
G0 X-11.904 Y4.981
G0 X-13.889 Y8.418
G0 X-14.006 Y8.349
G1 X3.753 Y-9.41 E162.5111
G1 X3.823 Y-9.48
G0 X3.621 Y-9.364
G0 X-3.635 Y-9.34
G0 X-3.754 Y-9.41
G1 X14.007 Y8.35 E162.66072
G1 X14.105 Y8.522
G1 X7.725 Y14.901 E162.71446
G1 X7.655 Y14.971
G0 X7.655 Y14.762
G0 X9.244 Y14.762
G0 X9.244 Y14.901
G1 X-7.894 Y-2.237 E162.85883
G1 X-7.964 Y-2.307
G0 X-7.764 Y-2.19
G0 X-9.847 Y1.417
G0 X-9.965 Y1.348
G1 X3.587 Y14.901 E162.973
G1 X3.657 Y14.971
G0 X3.657 Y14.762
G0 X2.068 Y14.762
G0 X2.068 Y14.901
G1 X12.034 Y4.935 E163.05695
G1 X12.104 Y4.865
G0 X11.903 Y4.98
G0 X16.058 Y12.175
G0 X16.175 Y12.108
G1 X13.382 Y14.901 E163.08048
G1 X13.312 Y14.971
G0 X13.312 Y14.762
G0 X14.901 Y14.762
G0 X14.901 Y14.901
G1 X-5.824 Y-5.824 E163.25507
G1 X-5.894 Y-5.894
G0 X-5.693 Y-5.777
G0 X17.052 Y13.872
G0 X17.377 Y13.865
;TYPE:WALL-INNER
G1 X0.677 Y-15.061 E163.45402
G1 X-.677 Y-15.061 E163.46209
G1 X-17.377 Y13.865 E163.66104
G1 X-16.779 Y15.062 E163.66901
G1 X16.778 Y15.061 E163.8689
G1 X17.377 Y13.865 E163.87687
G0 X17.831 Y13.851
;TYPE:WALL-OUTER
G1 F150 X0.908 Y-15.461 E164.07848
G1 X-.908 Y-15.461 E164.0893
G1 X-17.831 Y13.851 E164.29091
G1 X-17.026 Y15.462 E164.30164
G1 X17.026 Y15.461 E164.50448
G1 X17.831 Y13.851 E164.5152
G0 F300 X17.731 Y13.678
G0 X16.71 Y13.905
;MESH:NONMESH
G0 F120 X16.71 Y13.905 Z1.9
G0 F300 X-6.162 Y-4.964
G0 X-6.279 Y-5.033
;TIME_ELAPSED:7315.075835
;LAYER:16
;TYPE:FILL
;MESH:Tri_v2_small.stl
G1 X1.682 Y-12.996 E164.58227
G1 X1.752 Y-13.066
G0 X1.551 Y-12.95
G0 X-1.564 Y-12.927
G0 X-1.683 Y-12.997
G1 X6.28 Y-5.033 E164.64936
G1 X6.35 Y-4.963
G0 X6.209 Y-4.882
G0 X5.705 Y-5.755
G0 X5.823 Y-5.823
G1 X-14.901 Y14.901 E164.82393
G1 X-14.971 Y14.971
G0 X-14.971 Y14.762
G0 X-13.382 Y14.762
G0 X-13.382 Y14.901
G1 X-16.176 Y12.107 E164.84747
G1 X-16.246 Y12.037
G0 X-16.046 Y12.154
G0 X-13.988 Y8.59
G0 X-14.106 Y8.521
G1 X-7.725 Y14.901 E164.90122
G1 X-7.655 Y14.971
G0 X-7.655 Y14.762
G0 X-9.244 Y14.762
G0 X-9.244 Y14.901
G1 X7.894 Y-2.237 E165.04559
G1 X7.964 Y-2.307
G0 X7.763 Y-2.191
G0 X9.846 Y1.417
G0 X9.964 Y1.349
G1 X-3.587 Y14.901 E165.15975
G1 X-3.657 Y14.971
G0 X-3.657 Y14.762
G0 X-2.068 Y14.762
G0 X-2.068 Y14.901
G1 X-12.035 Y4.934 E165.24371
G1 X-12.105 Y4.864
G0 X-11.904 Y4.981
G0 X-13.889 Y8.418
G0 X-14.006 Y8.349
G1 X3.753 Y-9.41 E165.39331
G1 X3.823 Y-9.48
G0 X3.621 Y-9.364
G0 X-3.635 Y-9.34
G0 X-3.754 Y-9.41
G1 X14.007 Y8.35 E165.54293
G1 X14.105 Y8.522
G1 X7.725 Y14.901 E165.59667
G1 X7.655 Y14.971
G0 X7.655 Y14.762
G0 X9.244 Y14.762
G0 X9.244 Y14.901
G1 X-7.894 Y-2.237 E165.74104
G1 X-7.964 Y-2.307
G0 X-7.764 Y-2.19
G0 X-9.847 Y1.417
G0 X-9.965 Y1.348
G1 X3.587 Y14.901 E165.85521
G1 X3.657 Y14.971
G0 X3.657 Y14.762
G0 X2.068 Y14.762
G0 X2.068 Y14.901
G1 X12.034 Y4.935 E165.93916
G1 X12.104 Y4.865
G0 X11.903 Y4.98
G0 X16.058 Y12.175
G0 X16.175 Y12.108
G1 X13.382 Y14.901 E165.96269
G1 X13.312 Y14.971
G0 X13.312 Y14.762
G0 X14.901 Y14.762
G0 X14.901 Y14.901
G1 X-5.824 Y-5.824 E166.13728
G1 X-5.894 Y-5.894
G0 X-5.693 Y-5.777
G0 X17.052 Y13.872
G0 X17.377 Y13.865
;TYPE:WALL-INNER
G1 X0.677 Y-15.061 E166.33623
G1 X-.677 Y-15.061 E166.3443
G1 X-17.377 Y13.865 E166.54326
G1 X-16.779 Y15.062 E166.55123
G1 X16.778 Y15.061 E166.75111
G1 X17.377 Y13.865 E166.75908
G0 X17.831 Y13.851
;TYPE:WALL-OUTER
G1 F150 X0.908 Y-15.461 E166.96069
G1 X-.908 Y-15.461 E166.97151
G1 X-17.831 Y13.851 E167.17312
G1 X-17.026 Y15.462 E167.18385
G1 X17.026 Y15.461 E167.38669
G1 X17.831 Y13.851 E167.39741
G0 F300 X17.731 Y13.678
G0 X16.71 Y13.905
;MESH:NONMESH
G0 F120 X16.71 Y13.905 Z2
G0 F300 X-6.162 Y-4.964
G0 X-6.279 Y-5.033
;TIME_ELAPSED:7456.219302
;LAYER:17
;TYPE:FILL
;MESH:Tri_v2_small.stl
G1 X1.682 Y-12.996 E167.46448
G1 X1.752 Y-13.066
G0 X1.551 Y-12.95
G0 X-1.564 Y-12.927
G0 X-1.683 Y-12.997
G1 X6.28 Y-5.033 E167.53157
G1 X6.35 Y-4.963
G0 X6.209 Y-4.882
G0 X5.705 Y-5.755
G0 X5.823 Y-5.823
G1 X-14.901 Y14.901 E167.70615
G1 X-14.971 Y14.971
G0 X-14.971 Y14.762
G0 X-13.382 Y14.762
G0 X-13.382 Y14.901
G1 X-16.176 Y12.107 E167.72968
G1 X-16.246 Y12.037
G0 X-16.046 Y12.154
G0 X-13.988 Y8.59
G0 X-14.106 Y8.521
G1 X-7.725 Y14.901 E167.78343
G1 X-7.655 Y14.971
G0 X-7.655 Y14.762
G0 X-9.244 Y14.762
G0 X-9.244 Y14.901
G1 X7.894 Y-2.237 E167.9278
G1 X7.964 Y-2.307
G0 X7.763 Y-2.191
G0 X9.846 Y1.417
G0 X9.964 Y1.349
G1 X-3.587 Y14.901 E168.04196
G1 X-3.657 Y14.971
G0 X-3.657 Y14.762
G0 X-2.068 Y14.762
G0 X-2.068 Y14.901
G1 X-12.035 Y4.934 E168.12592
G1 X-12.105 Y4.864
G0 X-11.904 Y4.981
G0 X-13.889 Y8.418
G0 X-14.006 Y8.349
G1 X3.753 Y-9.41 E168.27552
G1 X3.823 Y-9.48
G0 X3.621 Y-9.364
G0 X-3.635 Y-9.34
G0 X-3.754 Y-9.41
G1 X14.007 Y8.35 E168.42514
G1 X14.105 Y8.522
G1 X7.725 Y14.901 E168.47888
G1 X7.655 Y14.971
G0 X7.655 Y14.762
G0 X9.244 Y14.762
G0 X9.244 Y14.901
G1 X-7.894 Y-2.237 E168.62325
G1 X-7.964 Y-2.307
G0 X-7.764 Y-2.19
G0 X-9.847 Y1.417
G0 X-9.965 Y1.348
G1 X3.587 Y14.901 E168.73742
G1 X3.657 Y14.971
G0 X3.657 Y14.762
G0 X2.068 Y14.762
G0 X2.068 Y14.901
G1 X12.034 Y4.935 E168.82137
G1 X12.104 Y4.865
G0 X11.903 Y4.98
G0 X16.058 Y12.175
G0 X16.175 Y12.108
G1 X13.382 Y14.901 E168.8449
G1 X13.312 Y14.971
G0 X13.312 Y14.762
G0 X14.901 Y14.762
G0 X14.901 Y14.901
G1 X-5.824 Y-5.824 E169.01949
G1 X-5.894 Y-5.894
G0 X-5.693 Y-5.777
G0 X17.052 Y13.872
G0 X17.377 Y13.865
;TYPE:WALL-INNER
G1 X0.677 Y-15.061 E169.21844
G1 X-.677 Y-15.061 E169.22651
G1 X-17.377 Y13.865 E169.42547
G1 X-16.779 Y15.062 E169.43344
G1 X16.778 Y15.061 E169.63332
G1 X17.377 Y13.865 E169.64129
G0 X17.831 Y13.851
;TYPE:WALL-OUTER
G1 F150 X0.908 Y-15.461 E169.8429
G1 X-.908 Y-15.461 E169.85372
G1 X-17.831 Y13.851 E170.05533
G1 X-17.026 Y15.462 E170.06606
G1 X17.026 Y15.461 E170.2689
G1 X17.831 Y13.851 E170.27962
G0 F300 X17.731 Y13.678
G0 X16.71 Y13.905
;MESH:NONMESH
G0 F120 X16.71 Y13.905 Z2.1
G0 F300 X-6.162 Y-4.964
G0 X-6.279 Y-5.033
;TIME_ELAPSED:7597.362769
;LAYER:18
;TYPE:FILL
;MESH:Tri_v2_small.stl
G1 X1.682 Y-12.996 E170.34669
G1 X1.752 Y-13.066
G0 X1.551 Y-12.95
G0 X-1.564 Y-12.927
G0 X-1.683 Y-12.997
G1 X6.28 Y-5.033 E170.41378
G1 X6.35 Y-4.963
G0 X6.209 Y-4.882
G0 X5.705 Y-5.755
G0 X5.823 Y-5.823
G1 X-14.901 Y14.901 E170.58836
G1 X-14.971 Y14.971
G0 X-14.971 Y14.762
G0 X-13.382 Y14.762
G0 X-13.382 Y14.901
G1 X-16.176 Y12.107 E170.61189
G1 X-16.246 Y12.037
G0 X-16.046 Y12.154
G0 X-13.988 Y8.59
G0 X-14.106 Y8.521
G1 X-7.725 Y14.901 E170.66564
G1 X-7.655 Y14.971
G0 X-7.655 Y14.762
G0 X-9.244 Y14.762
G0 X-9.244 Y14.901
G1 X7.894 Y-2.237 E170.81001
G1 X7.964 Y-2.307
G0 X7.763 Y-2.191
G0 X9.846 Y1.417
G0 X9.964 Y1.349
G1 X-3.587 Y14.901 E170.92417
G1 X-3.657 Y14.971
G0 X-3.657 Y14.762
G0 X-2.068 Y14.762
G0 X-2.068 Y14.901
G1 X-12.035 Y4.934 E171.00813
G1 X-12.105 Y4.864
G0 X-11.904 Y4.981
G0 X-13.889 Y8.418
G0 X-14.006 Y8.349
G1 X3.753 Y-9.41 E171.15774
G1 X3.823 Y-9.48
G0 X3.621 Y-9.364
G0 X-3.635 Y-9.34
G0 X-3.754 Y-9.41
G1 X14.007 Y8.35 E171.30735
G1 X14.105 Y8.522
G1 X7.725 Y14.901 E171.36109
G1 X7.655 Y14.971
G0 X7.655 Y14.762
G0 X9.244 Y14.762
G0 X9.244 Y14.901
G1 X-7.894 Y-2.237 E171.50546
G1 X-7.964 Y-2.307
G0 X-7.764 Y-2.19
G0 X-9.847 Y1.417
G0 X-9.965 Y1.348
G1 X3.587 Y14.901 E171.61963
G1 X3.657 Y14.971
G0 X3.657 Y14.762
G0 X2.068 Y14.762
G0 X2.068 Y14.901
G1 X12.034 Y4.935 E171.70358
G1 X12.104 Y4.865
G0 X11.903 Y4.98
G0 X16.058 Y12.175
G0 X16.175 Y12.108
G1 X13.382 Y14.901 E171.72711
G1 X13.312 Y14.971
G0 X13.312 Y14.762
G0 X14.901 Y14.762
G0 X14.901 Y14.901
G1 X-5.824 Y-5.824 E171.9017
G1 X-5.894 Y-5.894
G0 X-5.693 Y-5.777
G0 X17.052 Y13.872
G0 X17.377 Y13.865
;TYPE:WALL-INNER
G1 X0.677 Y-15.061 E172.10066
G1 X-.677 Y-15.061 E172.10872
G1 X-17.377 Y13.865 E172.30768
G1 X-16.779 Y15.062 E172.31565
G1 X16.778 Y15.061 E172.51554
G1 X17.377 Y13.865 E172.5235
G0 X17.831 Y13.851
;TYPE:WALL-OUTER
G1 F150 X0.908 Y-15.461 E172.72512
G1 X-.908 Y-15.461 E172.73593
G1 X-17.831 Y13.851 E172.93755
G1 X-17.026 Y15.462 E172.94827
G1 X17.026 Y15.461 E173.15111
G1 X17.831 Y13.851 E173.16183
G0 F300 X17.731 Y13.678
G0 X16.71 Y13.905
;MESH:NONMESH
G0 F120 X16.71 Y13.905 Z2.2
G0 F300 X-6.162 Y-4.964
G0 X-6.279 Y-5.033
;TIME_ELAPSED:7738.506236
;LAYER:19
;TYPE:FILL
;MESH:Tri_v2_small.stl
G1 X1.682 Y-12.996 E173.2289
G1 X1.752 Y-13.066
G0 X1.551 Y-12.95
G0 X-1.564 Y-12.927
G0 X-1.683 Y-12.997
G1 X6.28 Y-5.033 E173.29599
G1 X6.35 Y-4.963
G0 X6.209 Y-4.882
G0 X5.705 Y-5.755
G0 X5.823 Y-5.823
G1 X-14.901 Y14.901 E173.47057
G1 X-14.971 Y14.971
G0 X-14.971 Y14.762
G0 X-13.382 Y14.762
G0 X-13.382 Y14.901
G1 X-16.176 Y12.107 E173.4941
G1 X-16.246 Y12.037
G0 X-16.046 Y12.154
G0 X-13.988 Y8.59
G0 X-14.106 Y8.521
G1 X-7.725 Y14.901 E173.54785
G1 X-7.655 Y14.971
G0 X-7.655 Y14.762
G0 X-9.244 Y14.762
G0 X-9.244 Y14.901
G1 X7.894 Y-2.237 E173.69222
G1 X7.964 Y-2.307
G0 X7.763 Y-2.191
G0 X9.846 Y1.417
G0 X9.964 Y1.349
G1 X-3.587 Y14.901 E173.80638
G1 X-3.657 Y14.971
G0 X-3.657 Y14.762
G0 X-2.068 Y14.762
G0 X-2.068 Y14.901
G1 X-12.035 Y4.934 E173.89034
G1 X-12.105 Y4.864
G0 X-11.904 Y4.981
G0 X-13.889 Y8.418
G0 X-14.006 Y8.349
G1 X3.753 Y-9.41 E174.03995
G1 X3.823 Y-9.48
G0 X3.621 Y-9.364
G0 X-3.635 Y-9.34
G0 X-3.754 Y-9.41
G1 X14.007 Y8.35 E174.18956
G1 X14.105 Y8.522
G1 X7.725 Y14.901 E174.2433
G1 X7.655 Y14.971
G0 X7.655 Y14.762
G0 X9.244 Y14.762
G0 X9.244 Y14.901
G1 X-7.894 Y-2.237 E174.38767
G1 X-7.964 Y-2.307
G0 X-7.764 Y-2.19
G0 X-9.847 Y1.417
G0 X-9.965 Y1.348
G1 X3.587 Y14.901 E174.50184
G1 X3.657 Y14.971
G0 X3.657 Y14.762
G0 X2.068 Y14.762
G0 X2.068 Y14.901
G1 X12.034 Y4.935 E174.58579
G1 X12.104 Y4.865
G0 X11.903 Y4.98
G0 X16.058 Y12.175
G0 X16.175 Y12.108
G1 X13.382 Y14.901 E174.60932
G1 X13.312 Y14.971
G0 X13.312 Y14.762
G0 X14.901 Y14.762
G0 X14.901 Y14.901
G1 X-5.824 Y-5.824 E174.78391
G1 X-5.894 Y-5.894
G0 X-5.693 Y-5.777
G0 X17.052 Y13.872
G0 X17.377 Y13.865
;TYPE:WALL-INNER
G1 X0.677 Y-15.061 E174.98287
G1 X-.677 Y-15.061 E174.99093
G1 X-17.377 Y13.865 E175.18989
G1 X-16.779 Y15.062 E175.19786
G1 X16.778 Y15.061 E175.39775
G1 X17.377 Y13.865 E175.40571
G0 X17.831 Y13.851
;TYPE:WALL-OUTER
G1 F150 X0.908 Y-15.461 E175.60733
G1 X-.908 Y-15.461 E175.61814
G1 X-17.831 Y13.851 E175.81976
G1 X-17.026 Y15.462 E175.83048
G1 X17.026 Y15.461 E176.03332
G1 X17.831 Y13.851 E176.04404
G0 F300 X17.731 Y13.678
G0 X16.71 Y13.905
;MESH:NONMESH
G0 F120 X16.71 Y13.905 Z2.3
G0 F300 X-6.162 Y-4.964
G0 X-6.279 Y-5.033
;TIME_ELAPSED:7879.649702
;LAYER:20
;TYPE:FILL
;MESH:Tri_v2_small.stl
G1 X1.682 Y-12.996 E176.11112
G1 X1.752 Y-13.066
G0 X1.551 Y-12.95
G0 X-1.564 Y-12.927
G0 X-1.683 Y-12.997
G1 X6.28 Y-5.033 E176.1782
G1 X6.35 Y-4.963
G0 X6.209 Y-4.882
G0 X5.705 Y-5.755
G0 X5.823 Y-5.823
G1 X-14.901 Y14.901 E176.35278
G1 X-14.971 Y14.971
G0 X-14.971 Y14.762
G0 X-13.382 Y14.762
G0 X-13.382 Y14.901
G1 X-16.176 Y12.107 E176.37632
G1 X-16.246 Y12.037
G0 X-16.046 Y12.154
G0 X-13.988 Y8.59
G0 X-14.106 Y8.521
G1 X-7.725 Y14.901 E176.43007
G1 X-7.655 Y14.971
G0 X-7.655 Y14.762
G0 X-9.244 Y14.762
G0 X-9.244 Y14.901
G1 X7.894 Y-2.237 E176.57444
G1 X7.964 Y-2.307
G0 X7.763 Y-2.191
G0 X9.846 Y1.417
G0 X9.964 Y1.349
G1 X-3.587 Y14.901 E176.68859
G1 X-3.657 Y14.971
G0 X-3.657 Y14.762
G0 X-2.068 Y14.762
G0 X-2.068 Y14.901
G1 X-12.035 Y4.934 E176.77256
G1 X-12.105 Y4.864
G0 X-11.904 Y4.981
G0 X-13.889 Y8.418
G0 X-14.006 Y8.349
G1 X3.753 Y-9.41 E176.92216
G1 X3.823 Y-9.48
G0 X3.621 Y-9.364
G0 X-3.635 Y-9.34
G0 X-3.754 Y-9.41
G1 X14.007 Y8.35 E177.07177
G1 X14.105 Y8.522
G1 X7.725 Y14.901 E177.12551
G1 X7.655 Y14.971
G0 X7.655 Y14.762
G0 X9.244 Y14.762
G0 X9.244 Y14.901
G1 X-7.894 Y-2.237 E177.26988
G1 X-7.964 Y-2.307
G0 X-7.764 Y-2.19
G0 X-9.847 Y1.417
G0 X-9.965 Y1.348
G1 X3.587 Y14.901 E177.38405
G1 X3.657 Y14.971
G0 X3.657 Y14.762
G0 X2.068 Y14.762
G0 X2.068 Y14.901
G1 X12.034 Y4.935 E177.468
G1 X12.104 Y4.865
G0 X11.903 Y4.98
G0 X16.058 Y12.175
G0 X16.175 Y12.108
G1 X13.382 Y14.901 E177.49153
G1 X13.312 Y14.971
G0 X13.312 Y14.762
G0 X14.901 Y14.762
G0 X14.901 Y14.901
G1 X-5.824 Y-5.824 E177.66612
G1 X-5.894 Y-5.894
G0 X-5.693 Y-5.777
G0 X17.052 Y13.872
G0 X17.377 Y13.865
;TYPE:WALL-INNER
G1 X0.677 Y-15.061 E177.86508
G1 X-.677 Y-15.061 E177.87314
G1 X-17.377 Y13.865 E178.0721
G1 X-16.779 Y15.062 E178.08007
G1 X16.778 Y15.061 E178.27996
G1 X17.377 Y13.865 E178.28793
G0 X17.831 Y13.851
;TYPE:WALL-OUTER
G1 F150 X0.908 Y-15.461 E178.48954
G1 X-.908 Y-15.461 E178.50036
G1 X-17.831 Y13.851 E178.70197
G1 X-17.026 Y15.462 E178.7127
G1 X17.026 Y15.461 E178.91553
G1 X17.831 Y13.851 E178.92625
G0 F300 X17.731 Y13.678
G0 X16.71 Y13.905
;MESH:NONMESH
G0 F120 X16.71 Y13.905 Z2.4
G0 F300 X-6.162 Y-4.964
G0 X-6.279 Y-5.033
;TIME_ELAPSED:8020.793169
;LAYER:21
;TYPE:FILL
;MESH:Tri_v2_small.stl
G1 X1.682 Y-12.996 E178.99333
G1 X1.752 Y-13.066
G0 X1.551 Y-12.95
G0 X-1.564 Y-12.927
G0 X-1.683 Y-12.997
G1 X6.28 Y-5.033 E179.06041
G1 X6.35 Y-4.963
G0 X6.209 Y-4.882
G0 X5.705 Y-5.755
G0 X5.823 Y-5.823
G1 X-14.901 Y14.901 E179.23499
G1 X-14.971 Y14.971
G0 X-14.971 Y14.762
G0 X-13.382 Y14.762
G0 X-13.382 Y14.901
G1 X-16.176 Y12.107 E179.25853
G1 X-16.246 Y12.037
G0 X-16.046 Y12.154
G0 X-13.988 Y8.59
G0 X-14.106 Y8.521
G1 X-7.725 Y14.901 E179.31228
G1 X-7.655 Y14.971
G0 X-7.655 Y14.762
G0 X-9.244 Y14.762
G0 X-9.244 Y14.901
G1 X7.894 Y-2.237 E179.45665
G1 X7.964 Y-2.307
G0 X7.763 Y-2.191
G0 X9.846 Y1.417
G0 X9.964 Y1.349
G1 X-3.587 Y14.901 E179.5708
G1 X-3.657 Y14.971
G0 X-3.657 Y14.762
G0 X-2.068 Y14.762
G0 X-2.068 Y14.901
G1 X-12.035 Y4.934 E179.65477
G1 X-12.105 Y4.864
G0 X-11.904 Y4.981
G0 X-13.889 Y8.418
G0 X-14.006 Y8.349
G1 X3.753 Y-9.41 E179.80437
G1 X3.823 Y-9.48
G0 X3.621 Y-9.364
G0 X-3.635 Y-9.34
G0 X-3.754 Y-9.41
G1 X14.007 Y8.35 E179.95398
G1 X14.105 Y8.522
G1 X7.725 Y14.901 E180.00772
G1 X7.655 Y14.971
G0 X7.655 Y14.762
G0 X9.244 Y14.762
G0 X9.244 Y14.901
G1 X-7.894 Y-2.237 E180.1521
G1 X-7.964 Y-2.307
G0 X-7.764 Y-2.19
G0 X-9.847 Y1.417
G0 X-9.965 Y1.348
G1 X3.587 Y14.901 E180.26626
G1 X3.657 Y14.971
G0 X3.657 Y14.762
G0 X2.068 Y14.762
G0 X2.068 Y14.901
G1 X12.034 Y4.935 E180.35022
G1 X12.104 Y4.865
G0 X11.903 Y4.98
G0 X16.058 Y12.175
G0 X16.175 Y12.108
G1 X13.382 Y14.901 E180.37374
G1 X13.312 Y14.971
G0 X13.312 Y14.762
G0 X14.901 Y14.762
G0 X14.901 Y14.901
G1 X-5.824 Y-5.824 E180.54833
G1 X-5.894 Y-5.894
G0 X-5.693 Y-5.777
G0 X17.052 Y13.872
G0 X17.377 Y13.865
;TYPE:WALL-INNER
G1 X0.677 Y-15.061 E180.74729
G1 X-.677 Y-15.061 E180.75535
G1 X-17.377 Y13.865 E180.95431
G1 X-16.779 Y15.062 E180.96228
G1 X16.778 Y15.061 E181.16217
G1 X17.377 Y13.865 E181.17014
G0 X17.831 Y13.851
;TYPE:WALL-OUTER
G1 F150 X0.908 Y-15.461 E181.37175
G1 X-.908 Y-15.461 E181.38257
G1 X-17.831 Y13.851 E181.58418
G1 X-17.026 Y15.462 E181.59491
G1 X17.026 Y15.461 E181.79774
G1 X17.831 Y13.851 E181.80847
G0 F300 X17.731 Y13.678
G0 X16.71 Y13.905
;MESH:NONMESH
G0 F120 X16.71 Y13.905 Z2.5
G0 F300 X-6.162 Y-4.964
G0 X-6.279 Y-5.033
;TIME_ELAPSED:8161.936636
;LAYER:22
;TYPE:FILL
;MESH:Tri_v2_small.stl
G1 X1.682 Y-12.996 E181.87554
G1 X1.752 Y-13.066
G0 X1.551 Y-12.95
G0 X-1.564 Y-12.927
G0 X-1.683 Y-12.997
G1 X6.28 Y-5.033 E181.94262
G1 X6.35 Y-4.963
G0 X6.209 Y-4.882
G0 X5.705 Y-5.755
G0 X5.823 Y-5.823
G1 X-14.901 Y14.901 E182.1172
G1 X-14.971 Y14.971
G0 X-14.971 Y14.762
G0 X-13.382 Y14.762
G0 X-13.382 Y14.901
G1 X-16.176 Y12.107 E182.14074
G1 X-16.246 Y12.037
G0 X-16.046 Y12.154
G0 X-13.988 Y8.59
G0 X-14.106 Y8.521
G1 X-7.725 Y14.901 E182.19449
G1 X-7.655 Y14.971
G0 X-7.655 Y14.762
G0 X-9.244 Y14.762
G0 X-9.244 Y14.901
G1 X7.894 Y-2.237 E182.33886
G1 X7.964 Y-2.307
G0 X7.763 Y-2.191
G0 X9.846 Y1.417
G0 X9.964 Y1.349
G1 X-3.587 Y14.901 E182.45302
G1 X-3.657 Y14.971
G0 X-3.657 Y14.762
G0 X-2.068 Y14.762
G0 X-2.068 Y14.901
G1 X-12.035 Y4.934 E182.53698
G1 X-12.105 Y4.864
G0 X-11.904 Y4.981
G0 X-13.889 Y8.418
G0 X-14.006 Y8.349
G1 X3.753 Y-9.41 E182.68658
G1 X3.823 Y-9.48
G0 X3.621 Y-9.364
G0 X-3.635 Y-9.34
G0 X-3.754 Y-9.41
G1 X14.007 Y8.35 E182.83619
G1 X14.105 Y8.522
G1 X7.725 Y14.901 E182.88994
G1 X7.655 Y14.971
G0 X7.655 Y14.762
G0 X9.244 Y14.762
G0 X9.244 Y14.901
G1 X-7.894 Y-2.237 E183.03431
G1 X-7.964 Y-2.307
G0 X-7.764 Y-2.19
G0 X-9.847 Y1.417
G0 X-9.965 Y1.348
G1 X3.587 Y14.901 E183.14847
G1 X3.657 Y14.971
G0 X3.657 Y14.762
G0 X2.068 Y14.762
G0 X2.068 Y14.901
G1 X12.034 Y4.935 E183.23243
G1 X12.104 Y4.865
G0 X11.903 Y4.98
G0 X16.058 Y12.175
G0 X16.175 Y12.108
G1 X13.382 Y14.901 E183.25595
G1 X13.312 Y14.971
G0 X13.312 Y14.762
G0 X14.901 Y14.762
G0 X14.901 Y14.901
G1 X-5.824 Y-5.824 E183.43054
G1 X-5.894 Y-5.894
G0 X-5.693 Y-5.777
G0 X17.052 Y13.872
G0 X17.377 Y13.865
;TYPE:WALL-INNER
G1 X0.677 Y-15.061 E183.6295
G1 X-.677 Y-15.061 E183.63756
G1 X-17.377 Y13.865 E183.83652
G1 X-16.779 Y15.062 E183.84449
G1 X16.778 Y15.061 E184.04438
G1 X17.377 Y13.865 E184.05235
G0 X17.831 Y13.851
;TYPE:WALL-OUTER
G1 F150 X0.908 Y-15.461 E184.25396
G1 X-.908 Y-15.461 E184.26478
G1 X-17.831 Y13.851 E184.46639
G1 X-17.026 Y15.462 E184.47712
G1 X17.026 Y15.461 E184.67995
G1 X17.831 Y13.851 E184.69068
G0 F300 X17.731 Y13.678
G0 X16.71 Y13.905
;MESH:NONMESH
G0 F120 X16.71 Y13.905 Z2.6
G0 F300 X-6.162 Y-4.964
G0 X-6.279 Y-5.033
;TIME_ELAPSED:8303.080102
;LAYER:23
;TYPE:FILL
;MESH:Tri_v2_small.stl
G1 X1.682 Y-12.996 E184.75775
G1 X1.752 Y-13.066
G0 X1.551 Y-12.95
G0 X-1.564 Y-12.927
G0 X-1.683 Y-12.997
G1 X6.28 Y-5.033 E184.82483
G1 X6.35 Y-4.963
G0 X6.209 Y-4.882
G0 X5.705 Y-5.755
G0 X5.823 Y-5.823
G1 X-14.901 Y14.901 E184.99941
G1 X-14.971 Y14.971
G0 X-14.971 Y14.762
G0 X-13.382 Y14.762
G0 X-13.382 Y14.901
G1 X-16.176 Y12.107 E185.02295
G1 X-16.246 Y12.037
G0 X-16.046 Y12.154
G0 X-13.988 Y8.59
G0 X-14.106 Y8.521
G1 X-7.725 Y14.901 E185.0767
G1 X-7.655 Y14.971
G0 X-7.655 Y14.762
G0 X-9.244 Y14.762
G0 X-9.244 Y14.901
G1 X7.894 Y-2.237 E185.22107
G1 X7.964 Y-2.307
G0 X7.763 Y-2.191
G0 X9.846 Y1.417
G0 X9.964 Y1.349
G1 X-3.587 Y14.901 E185.33523
G1 X-3.657 Y14.971
G0 X-3.657 Y14.762
G0 X-2.068 Y14.762
G0 X-2.068 Y14.901
G1 X-12.035 Y4.934 E185.41919
G1 X-12.105 Y4.864
G0 X-11.904 Y4.981
G0 X-13.889 Y8.418
G0 X-14.006 Y8.349
G1 X3.753 Y-9.41 E185.56879
G1 X3.823 Y-9.48
G0 X3.621 Y-9.364
G0 X-3.635 Y-9.34
G0 X-3.754 Y-9.41
G1 X14.007 Y8.35 E185.71841
G1 X14.105 Y8.522
G1 X7.725 Y14.901 E185.77215
G1 X7.655 Y14.971
G0 X7.655 Y14.762
G0 X9.244 Y14.762
G0 X9.244 Y14.901
G1 X-7.894 Y-2.237 E185.91652
G1 X-7.964 Y-2.307
G0 X-7.764 Y-2.19
G0 X-9.847 Y1.417
G0 X-9.965 Y1.348
G1 X3.587 Y14.901 E186.03068
G1 X3.657 Y14.971
G0 X3.657 Y14.762
G0 X2.068 Y14.762
G0 X2.068 Y14.901
G1 X12.034 Y4.935 E186.11464
G1 X12.104 Y4.865
G0 X11.903 Y4.98
G0 X16.058 Y12.175
G0 X16.175 Y12.108
G1 X13.382 Y14.901 E186.13817
G1 X13.312 Y14.971
G0 X13.312 Y14.762
G0 X14.901 Y14.762
G0 X14.901 Y14.901
G1 X-5.824 Y-5.824 E186.31275
G1 X-5.894 Y-5.894
G0 X-5.693 Y-5.777
G0 X17.052 Y13.872
G0 X17.377 Y13.865
;TYPE:WALL-INNER
G1 X0.677 Y-15.061 E186.51171
G1 X-.677 Y-15.061 E186.51978
G1 X-17.377 Y13.865 E186.71873
G1 X-16.779 Y15.062 E186.7267
G1 X16.778 Y15.061 E186.92659
G1 X17.377 Y13.865 E186.93456
G0 X17.831 Y13.851
;TYPE:WALL-OUTER
G1 F150 X0.908 Y-15.461 E187.13617
G1 X-.908 Y-15.461 E187.14699
G1 X-17.831 Y13.851 E187.3486
G1 X-17.026 Y15.462 E187.35933
G1 X17.026 Y15.461 E187.56217
G1 X17.831 Y13.851 E187.57289
G0 F300 X17.731 Y13.678
G0 X16.71 Y13.905
;MESH:NONMESH
G0 F120 X16.71 Y13.905 Z2.7
G0 F300 X-6.162 Y-4.964
G0 X-6.279 Y-5.033
;TIME_ELAPSED:8444.223569
;LAYER:24
;TYPE:FILL
;MESH:Tri_v2_small.stl
G1 X1.682 Y-12.996 E187.63996
G1 X1.752 Y-13.066
G0 X1.551 Y-12.95
G0 X-1.564 Y-12.927
G0 X-1.683 Y-12.997
G1 X6.28 Y-5.033 E187.70704
G1 X6.35 Y-4.963
G0 X6.209 Y-4.882
G0 X5.705 Y-5.755
G0 X5.823 Y-5.823
G1 X-14.901 Y14.901 E187.88162
G1 X-14.971 Y14.971
G0 X-14.971 Y14.762
G0 X-13.382 Y14.762
G0 X-13.382 Y14.901
G1 X-16.176 Y12.107 E187.90516
G1 X-16.246 Y12.037
G0 X-16.046 Y12.154
G0 X-13.988 Y8.59
G0 X-14.106 Y8.521
G1 X-7.725 Y14.901 E187.95891
G1 X-7.655 Y14.971
G0 X-7.655 Y14.762
G0 X-9.244 Y14.762
G0 X-9.244 Y14.901
G1 X7.894 Y-2.237 E188.10328
G1 X7.964 Y-2.307
G0 X7.763 Y-2.191
G0 X9.846 Y1.417
G0 X9.964 Y1.349
G1 X-3.587 Y14.901 E188.21744
G1 X-3.657 Y14.971
G0 X-3.657 Y14.762
G0 X-2.068 Y14.762
G0 X-2.068 Y14.901
G1 X-12.035 Y4.934 E188.3014
G1 X-12.105 Y4.864
G0 X-11.904 Y4.981
G0 X-13.889 Y8.418
G0 X-14.006 Y8.349
G1 X3.753 Y-9.41 E188.451
G1 X3.823 Y-9.48
G0 X3.621 Y-9.364
G0 X-3.635 Y-9.34
G0 X-3.754 Y-9.41
G1 X14.007 Y8.35 E188.60062
G1 X14.105 Y8.522
G1 X7.725 Y14.901 E188.65436
G1 X7.655 Y14.971
G0 X7.655 Y14.762
G0 X9.244 Y14.762
G0 X9.244 Y14.901
G1 X-7.894 Y-2.237 E188.79873
G1 X-7.964 Y-2.307
G0 X-7.764 Y-2.19
G0 X-9.847 Y1.417
G0 X-9.965 Y1.348
G1 X3.587 Y14.901 E188.91289
G1 X3.657 Y14.971
G0 X3.657 Y14.762
G0 X2.068 Y14.762
G0 X2.068 Y14.901
G1 X12.034 Y4.935 E188.99685
G1 X12.104 Y4.865
G0 X11.903 Y4.98
G0 X16.058 Y12.175
G0 X16.175 Y12.108
G1 X13.382 Y14.901 E189.02038
G1 X13.312 Y14.971
G0 X13.312 Y14.762
G0 X14.901 Y14.762
G0 X14.901 Y14.901
G1 X-5.824 Y-5.824 E189.19496
G1 X-5.894 Y-5.894
G0 X-5.693 Y-5.777
G0 X17.052 Y13.872
G0 X17.377 Y13.865
;TYPE:WALL-INNER
G1 X0.677 Y-15.061 E189.39392
G1 X-.677 Y-15.061 E189.40199
G1 X-17.377 Y13.865 E189.60094
G1 X-16.779 Y15.062 E189.60891
G1 X16.778 Y15.061 E189.8088
G1 X17.377 Y13.865 E189.81677
G0 X17.831 Y13.851
;TYPE:WALL-OUTER
G1 F150 X0.908 Y-15.461 E190.01838
G1 X-.908 Y-15.461 E190.0292
G1 X-17.831 Y13.851 E190.23081
G1 X-17.026 Y15.462 E190.24154
G1 X17.026 Y15.461 E190.44438
G1 X17.831 Y13.851 E190.4551
G0 F300 X17.731 Y13.678
G0 X16.71 Y13.905
;MESH:NONMESH
G0 F120 X16.71 Y13.905 Z2.8
G0 F300 X17.275 Y13.868
;TIME_ELAPSED:8579.522960
;LAYER:25
;TYPE:WALL-INNER
;MESH:Tri_v2_small.stl
G1 X0.624 Y-14.971 E190.65346
G1 X-.624 Y-14.971 E190.66089
G1 X-17.276 Y13.868 E190.85926
G1 X-16.724 Y14.971 E190.86661
G1 X16.724 Y14.97 E191.06585
G1 X17.275 Y13.868 E191.07318
G0 X17.729 Y13.854
;TYPE:WALL-OUTER
G1 F150 X0.855 Y-15.371 E191.2742
G1 X-.855 Y-15.371 E191.28439
G1 X-17.73 Y13.854 E191.48541
G1 X-16.971 Y15.371 E191.49551
G1 X16.971 Y15.37 E191.69769
G1 X17.729 Y13.854 E191.70779
G0 F300 X17.629 Y13.681
G0 X16.843 Y13.882
;TYPE:SKIN
G1 F150 X16.489 Y14.59 E191.71251
G1 X-16.49 Y14.591 E191.90895
G1 X-16.845 Y13.882 E191.91367
G1 X-.405 Y-14.59 E192.10951
G1 X0.405 Y-14.59 E192.11434
G1 X16.843 Y13.882 E192.31017
G0 F300 X16.155 Y14.391
G1 F150 X16.572 Y13.974 E192.31369
G0 F300 X16.423 Y13.557
G1 F150 X15.59 Y14.391 E192.32071
G0 F300 X15.024 Y14.391
G1 F150 X16.216 Y13.198 E192.33075
G0 F300 X16.009 Y12.84
G1 F150 X14.458 Y14.391 E192.34382
G0 F300 X13.893 Y14.391
G1 F150 X15.802 Y12.481 E192.3599
G0 F300 X15.595 Y12.123
G1 F150 X13.327 Y14.391 E192.37901
G0 F300 X12.761 Y14.391
G1 F150 X15.388 Y11.764 E192.40114
G0 F300 X15.181 Y11.405
G1 F150 X12.196 Y14.391 E192.42629
G0 F300 X11.63 Y14.391
G1 F150 X14.974 Y11.047 E192.45446
G0 F300 X14.767 Y10.688
G1 F150 X11.064 Y14.391 E192.48565
G0 F300 X10.499 Y14.391
G1 F150 X14.56 Y10.33 E192.51986
G0 F300 X14.352 Y9.971
G1 F150 X9.933 Y14.391 E192.55709
G0 F300 X9.367 Y14.391
G1 F150 X14.146 Y9.612 E192.59735
G0 F300 X13.939 Y9.253
G1 F150 X8.802 Y14.391 E192.64063
G0 F300 X8.236 Y14.391
G1 F150 X13.732 Y8.895 E192.68693
G0 F300 X13.524 Y8.536
G1 F150 X7.67 Y14.391 E192.73625
G0 F300 X7.105 Y14.391
G1 F150 X13.317 Y8.178 E192.78858
G0 F300 X13.11 Y7.819
G1 F150 X6.539 Y14.391 E192.84394
G0 F300 X5.973 Y14.391
G1 F150 X12.903 Y7.46 E192.90232
G0 F300 X12.696 Y7.102
G1 F150 X5.407 Y14.391 E192.96373
G0 F300 X4.842 Y14.391
G1 F150 X12.489 Y6.743 E193.02815
G0 F300 X12.282 Y6.385
G1 F150 X4.276 Y14.391 E193.09559
G0 F300 X3.71 Y14.391
G1 F150 X12.075 Y6.026 E193.16606
G0 F300 X11.868 Y5.667
G1 F150 X3.145 Y14.391 E193.23954
G0 F300 X2.579 Y14.391
G1 F150 X11.661 Y5.308 E193.31606
G0 F300 X11.454 Y4.95
G1 F150 X2.013 Y14.391 E193.39559
G0 F300 X1.448 Y14.391
G1 F150 X11.247 Y4.591 E193.47814
G0 F300 X11.04 Y4.233
G1 F150 X0.882 Y14.391 E193.56371
G0 F300 X0.316 Y14.391
G1 F150 X10.832 Y3.874 E193.6523
G0 F300 X10.626 Y3.515
G1 F150 X-.248 Y14.391 E193.74391
G0 F300 X-.814 Y14.391
G1 F150 X10.419 Y3.157 E193.83854
G0 F300 X10.212 Y2.798
G1 F150 X-1.38 Y14.391 E193.9362
G0 F300 X-1.945 Y14.391
G1 F150 X10.004 Y2.44 E194.03686
G0 F300 X9.797 Y2.081
G1 F150 X-2.511 Y14.391 E194.14056
G0 F300 X-3.077 Y14.391
G1 F150 X9.591 Y1.722 E194.24728
G0 F300 X9.384 Y1.364
G1 F150 X-3.643 Y14.391 E194.35701
G0 F300 X-4.208 Y14.391
G1 F150 X9.176 Y1.005 E194.46977
G0 F300 X8.969 Y0.647
G1 F150 X-4.774 Y14.391 E194.58555
